Assets/Samples/High Definition RP/10.5.0/Additional Post-processing Data/Orange.CUBE
#Created by: Adobe Photoshop Export Color Lookup Plugin
TITLE "Frame.psd"
#LUT size
LUT_3D_SIZE 5
#data domain
#LUT data points
DOMAIN_MIN 0.000000 0.000000 0.000000
DOMAIN_MAX 0.903226 0.903226 0.903226
0.000000 0.000000 0.000000
0.025681 0.000000 0.000000
0.367784 0.000000 0.000000
1.000000 0.000000 0.000000
1.000000 0.000000 0.000000
0.000000 0.031482 0.000000
0.033798 0.029388 0.000000
0.375901 0.016575 0.000000
1.000000 0.000000 0.000000
1.000000 0.000000 0.000000
0.027564 0.317173 0.000000
0.083471 0.315079 0.000000
0.425574 0.302266 0.000000
1.000000 0.194743 0.000000
1.000000 0.000000 0.000000
0.444403 1.000000 0.000000
0.500311 1.000000 0.000000
0.842414 1.000000 0.000000
1.000000 1.000000 0.000000
1.000000 1.000000 0.000000
1.000000 1.000000 0.000000
1.000000 1.000000 0.000000
1.000000 1.000000 0.000000
1.000000 1.000000 0.000000
1.000000 1.000000 0.000000
0.000000 0.000000 0.009941
0.045688 0.000000 0.009327
0.387791 0.000000 0.005572
1.000000 0.000000 0.000000
1.000000 0.000000 0.000000
0.000000 0.029163 0.005529
0.053806 0.027069 0.004915
0.395909 0.014256 0.001159
1.000000 0.000000 0.000000
1.000000 0.000000 0.000000
0.047571 0.314853 0.000000
0.103478 0.312760 0.000000
0.445581 0.299947 0.000000
1.000000 0.192424 0.000000
1.000000 0.000000 0.000000
0.464411 1.000000 0.000000
0.520318 1.000000 0.000000
0.862421 1.000000 0.000000
1.000000 1.000000 0.000000
1.000000 1.000000 0.000000
1.000000 1.000000 0.000000
1.000000 1.000000 0.000000
1.000000 1.000000 0.000000
1.000000 1.000000 0.000000
1.000000 1.000000 0.000000
0.112208 0.000000 0.087667
0.168115 0.000000 0.087053
0.510218 0.000000 0.083297
1.000000 0.000000 0.051783
1.000000 0.000000 0.000000
0.120325 0.014970 0.083254
0.176233 0.012876 0.082641
0.518336 0.000063 0.078885
1.000000 0.000000 0.047370
1.000000 0.000000 0.000000
0.169998 0.300661 0.056255
0.225905 0.298567 0.055641
0.568008 0.285754 0.051885
1.000000 0.178232 0.020371
1.000000 0.000000 0.000000
0.586838 1.000000 0.000000
0.642745 1.000000 0.000000
0.984848 1.000000 0.000000
1.000000 1.000000 0.000000
1.000000 1.000000 0.000000
1.000000 1.000000 0.000000
1.000000 1.000000 0.000000
1.000000 1.000000 0.000000
1.000000 1.000000 0.000000
1.000000 1.000000 0.000000
1.000000 0.000000 0.739922
1.000000 0.000000 0.739308
1.000000 0.000000 0.735553
1.000000 0.000000 0.704038
1.000000 0.000000 0.440678
1.000000 0.000000 0.735509
1.000000 0.000000 0.734896
1.000000 0.000000 0.731140
1.000000 0.000000 0.699625
1.000000 0.000000 0.436266
1.000000 0.181563 0.708510
1.000000 0.179469 0.707896
1.000000 0.166656 0.704140
1.000000 0.059133 0.672626
1.000000 0.000000 0.409266
1.000000 1.000000 0.481934
1.000000 1.000000 0.481321
1.000000 1.000000 0.477565
1.000000 1.000000 0.446050
1.000000 1.000000 0.182691
1.000000 1.000000 0.000000
1.000000 1.000000 0.000000
1.000000 1.000000 0.000000
1.000000 1.000000 0.000000
1.000000 1.000000 0.000000
1.000000 0.000000 1.000000
1.000000 0.000000 1.000000
1.000000 0.000000 1.000000
1.000000 0.000000 1.000000
1.000000 0.000000 1.000000
1.000000 0.000000 1.000000
1.000000 0.000000 1.000000
1.000000 0.000000 1.000000
1.000000 0.000000 1.000000
1.000000 0.000000 1.000000
1.000000 0.000000 1.000000
1.000000 0.000000 1.000000
1.000000 0.000000 1.000000
1.000000 0.000000 1.000000
1.000000 0.000000 1.000000
1.000000 1.000000 1.000000
1.000000 1.000000 1.000000
1.000000 1.000000 1.000000
1.000000 1.000000 1.000000
1.000000 0.562778 1.000000
1.000000 1.000000 1.000000
1.000000 1.000000 1.000000
1.000000 1.000000 1.000000
1.000000 1.000000 1.000000
1.000000 1.000000 1.000000
