Assets/Samples/High Definition RP/10.5.0/Additional Post-processing Data/Orange.CUBE
#Created by: Adobe Photoshop Export Color Lookup Plugin
TITLE "Frame.psd"
#LUT size
LUT_3D_SIZE 32
#data domain
DOMAIN_MIN 0.0 0.0 0.0
DOMAIN_MAX 1.0 1.0 1.0
#LUT data points
0.000000 0.000000 0.000000
0.000000 0.000000 0.000000
0.000000 0.000000 0.000000
0.000000 0.000000 0.000000
0.000000 0.000000 0.000000
0.005169 0.000000 0.000000
0.014093 0.000000 0.000000
0.025681 0.000000 0.000000
0.041930 0.000000 0.000000
0.064273 0.000000 0.000000
0.094641 0.000000 0.000000
0.135264 0.000000 0.000000
0.190672 0.000000 0.000000
0.265825 0.000000 0.000000
0.367784 0.000000 0.000000
0.506104 0.000000 0.000000
0.693105 0.000000 0.000000
0.946336 0.000000 0.000000
1.000000 0.000000 0.000000
1.000000 0.000000 0.000000
1.000000 0.000000 0.000000
1.000000 0.000000 0.000000
1.000000 0.000000 0.000000
1.000000 0.000000 0.000000
1.000000 0.000000 0.000000
1.000000 0.000000 0.000000
1.000000 0.000000 0.000000
1.000000 0.000000 0.000000
1.000000 0.000000 0.000000
1.000000 0.000000 0.000000
1.000000 0.000000 0.000000
1.000000 0.000000 0.000000
0.000000 0.000000 0.000000
0.000000 0.000000 0.000000
0.000000 0.000000 0.000000
0.000000 0.000000 0.000000
0.000000 0.000000 0.000000
0.006247 0.000000 0.000000
0.015171 0.000000 0.000000
0.026759 0.000000 0.000000
0.043008 0.000000 0.000000
0.065351 0.000000 0.000000
0.095719 0.000000 0.000000
0.136342 0.000000 0.000000
0.191750 0.000000 0.000000
0.266904 0.000000 0.000000
0.368862 0.000000 0.000000
0.507182 0.000000 0.000000
0.694183 0.000000 0.000000
0.947414 0.000000 0.000000
1.000000 0.000000 0.000000
1.000000 0.000000 0.000000
1.000000 0.000000 0.000000
1.000000 0.000000 0.000000
1.000000 0.000000 0.000000
1.000000 0.000000 0.000000
1.000000 0.000000 0.000000
1.000000 0.000000 0.000000
1.000000 0.000000 0.000000
1.000000 0.000000 0.000000
1.000000 0.000000 0.000000
1.000000 0.000000 0.000000
1.000000 0.000000 0.000000
1.000000 0.000000 0.000000
0.000000 0.000000 0.000000
0.000000 0.000000 0.000000
0.000000 0.000000 0.000000
0.000000 0.000000 0.000000
0.000000 0.000000 0.000000
0.007185 0.000000 0.000000
0.016109 0.000000 0.000000
0.027697 0.000000 0.000000
0.043946 0.000000 0.000000
0.066289 0.000000 0.000000
0.096657 0.000000 0.000000
0.137280 0.000000 0.000000
0.192688 0.000000 0.000000
0.267842 0.000000 0.000000
0.369800 0.000000 0.000000
0.508120 0.000000 0.000000
0.695121 0.000000 0.000000
0.948352 0.000000 0.000000
1.000000 0.000000 0.000000
1.000000 0.000000 0.000000
1.000000 0.000000 0.000000
1.000000 0.000000 0.000000
1.000000 0.000000 0.000000
1.000000 0.000000 0.000000
1.000000 0.000000 0.000000
1.000000 0.000000 0.000000
1.000000 0.000000 0.000000
1.000000 0.000000 0.000000
1.000000 0.000000 0.000000
1.000000 0.000000 0.000000
1.000000 0.000000 0.000000
1.000000 0.000000 0.000000
0.000000 0.002535 0.000000
0.000000 0.002256 0.000000
0.000000 0.002015 0.000000
0.000000 0.001739 0.000000
0.000629 0.001494 0.000000
0.008254 0.001209 0.000000
0.017178 0.000875 0.000000
0.028765 0.000441 0.000000
0.045015 0.000000 0.000000
0.067358 0.000000 0.000000
0.097725 0.000000 0.000000
0.138349 0.000000 0.000000
0.193757 0.000000 0.000000
0.268910 0.000000 0.000000
0.370868 0.000000 0.000000
0.509188 0.000000 0.000000
0.696189 0.000000 0.000000
0.949421 0.000000 0.000000
1.000000 0.000000 0.000000
1.000000 0.000000 0.000000
1.000000 0.000000 0.000000
1.000000 0.000000 0.000000
1.000000 0.000000 0.000000
1.000000 0.000000 0.000000
1.000000 0.000000 0.000000
1.000000 0.000000 0.000000
1.000000 0.000000 0.000000
1.000000 0.000000 0.000000
1.000000 0.000000 0.000000
1.000000 0.000000 0.000000
1.000000 0.000000 0.000000
1.000000 0.000000 0.000000
0.000000 0.007985 0.000000
0.000000 0.007707 0.000000
0.000000 0.007465 0.000000
0.000000 0.007189 0.000000
0.001576 0.006945 0.000000
0.009201 0.006659 0.000000
0.018125 0.006325 0.000000
0.029713 0.005891 0.000000
0.045962 0.005282 0.000000
0.068305 0.004445 0.000000
0.098673 0.003308 0.000000
0.139296 0.001787 0.000000
0.194704 0.000000 0.000000
0.269858 0.000000 0.000000
0.371816 0.000000 0.000000
0.510136 0.000000 0.000000
0.697137 0.000000 0.000000
0.950368 0.000000 0.000000
1.000000 0.000000 0.000000
1.000000 0.000000 0.000000
1.000000 0.000000 0.000000
1.000000 0.000000 0.000000
1.000000 0.000000 0.000000
1.000000 0.000000 0.000000
1.000000 0.000000 0.000000
1.000000 0.000000 0.000000
1.000000 0.000000 0.000000
1.000000 0.000000 0.000000
1.000000 0.000000 0.000000
1.000000 0.000000 0.000000
1.000000 0.000000 0.000000
1.000000 0.000000 0.000000
0.000000 0.014353 0.000000
0.000000 0.014075 0.000000
0.000000 0.013833 0.000000
0.000000 0.013557 0.000000
0.002683 0.013313 0.000000
0.010309 0.013027 0.000000
0.019232 0.012693 0.000000
0.030820 0.012259 0.000000
0.047069 0.011650 0.000000
0.069412 0.010813 0.000000
0.099780 0.009676 0.000000
0.140404 0.008154 0.000000
0.195811 0.006079 0.000000
0.270965 0.003264 0.000000
0.372923 0.000000 0.000000
0.511243 0.000000 0.000000
0.698244 0.000000 0.000000
0.951475 0.000000 0.000000
1.000000 0.000000 0.000000
1.000000 0.000000 0.000000
1.000000 0.000000 0.000000
1.000000 0.000000 0.000000
1.000000 0.000000 0.000000
1.000000 0.000000 0.000000
1.000000 0.000000 0.000000
1.000000 0.000000 0.000000
1.000000 0.000000 0.000000
1.000000 0.000000 0.000000
1.000000 0.000000 0.000000
1.000000 0.000000 0.000000
1.000000 0.000000 0.000000
1.000000 0.000000 0.000000
0.000000 0.021805 0.000000
0.000000 0.021527 0.000000
0.000000 0.021285 0.000000
0.000000 0.021009 0.000000
0.003979 0.020765 0.000000
0.011604 0.020479 0.000000
0.020528 0.020145 0.000000
0.032116 0.019711 0.000000
0.048365 0.019102 0.000000
0.070708 0.018266 0.000000
0.101076 0.017128 0.000000
0.141699 0.015607 0.000000
0.197107 0.013532 0.000000
0.272261 0.010717 0.000000
0.374219 0.006898 0.000000
0.512539 0.001718 0.000000
0.699540 0.000000 0.000000
0.952771 0.000000 0.000000
1.000000 0.000000 0.000000
1.000000 0.000000 0.000000
1.000000 0.000000 0.000000
1.000000 0.000000 0.000000
1.000000 0.000000 0.000000
1.000000 0.000000 0.000000
1.000000 0.000000 0.000000
1.000000 0.000000 0.000000
1.000000 0.000000 0.000000
1.000000 0.000000 0.000000
1.000000 0.000000 0.000000
1.000000 0.000000 0.000000
1.000000 0.000000 0.000000
1.000000 0.000000 0.000000
0.000000 0.031482 0.000000
0.000000 0.031204 0.000000
0.000000 0.030962 0.000000
0.000000 0.030686 0.000000
0.005662 0.030442 0.000000
0.013287 0.030156 0.000000
0.022211 0.029822 0.000000
0.033798 0.029388 0.000000
0.050048 0.028779 0.000000
0.072391 0.027943 0.000000
0.102758 0.026805 0.000000
0.143382 0.025284 0.000000
0.198790 0.023208 0.000000
0.273943 0.020394 0.000000
0.375901 0.016575 0.000000
0.514221 0.011395 0.000000
0.701222 0.004391 0.000000
0.954454 0.000000 0.000000
1.000000 0.000000 0.000000
1.000000 0.000000 0.000000
1.000000 0.000000 0.000000
1.000000 0.000000 0.000000
1.000000 0.000000 0.000000
1.000000 0.000000 0.000000
1.000000 0.000000 0.000000
1.000000 0.000000 0.000000
1.000000 0.000000 0.000000
1.000000 0.000000 0.000000
1.000000 0.000000 0.000000
1.000000 0.000000 0.000000
1.000000 0.000000 0.000000
1.000000 0.000000 0.000000
0.000000 0.045052 0.000000
0.000000 0.044774 0.000000
0.000000 0.044532 0.000000
0.001495 0.044256 0.000000
0.008021 0.044012 0.000000
0.015646 0.043726 0.000000
0.024570 0.043392 0.000000
0.036158 0.042958 0.000000
0.052407 0.042349 0.000000
0.074750 0.041512 0.000000
0.105118 0.040375 0.000000
0.145741 0.038854 0.000000
0.201149 0.036778 0.000000
0.276302 0.033964 0.000000
0.378261 0.030145 0.000000
0.516580 0.024964 0.000000
0.703582 0.017961 0.000000
0.956813 0.008476 0.000000
1.000000 0.000000 0.000000
1.000000 0.000000 0.000000
1.000000 0.000000 0.000000
1.000000 0.000000 0.000000
1.000000 0.000000 0.000000
1.000000 0.000000 0.000000
1.000000 0.000000 0.000000
1.000000 0.000000 0.000000
1.000000 0.000000 0.000000
1.000000 0.000000 0.000000
1.000000 0.000000 0.000000
1.000000 0.000000 0.000000
1.000000 0.000000 0.000000
1.000000 0.000000 0.000000
0.000000 0.063710 0.000000
0.000000 0.063432 0.000000
0.000000 0.063190 0.000000
0.004739 0.062915 0.000000
0.011265 0.062670 0.000000
0.018890 0.062385 0.000000
0.027814 0.062050 0.000000
0.039402 0.061616 0.000000
0.055651 0.061008 0.000000
0.077994 0.060171 0.000000
0.108362 0.059034 0.000000
0.148985 0.057512 0.000000
0.204393 0.055437 0.000000
0.279547 0.052622 0.000000
0.381505 0.048804 0.000000
0.519825 0.043623 0.000000
0.706826 0.036619 0.000000
0.960057 0.027135 0.000000
1.000000 0.014272 0.000000
1.000000 0.000000 0.000000
1.000000 0.000000 0.000000
1.000000 0.000000 0.000000
1.000000 0.000000 0.000000
1.000000 0.000000 0.000000
1.000000 0.000000 0.000000
1.000000 0.000000 0.000000
1.000000 0.000000 0.000000
1.000000 0.000000 0.000000
1.000000 0.000000 0.000000
1.000000 0.000000 0.000000
1.000000 0.000000 0.000000
1.000000 0.000000 0.000000
0.000000 0.089071 0.000000
0.000000 0.088792 0.000000
0.001789 0.088550 0.000000
0.009148 0.088275 0.000000
0.015674 0.088030 0.000000
0.023300 0.087745 0.000000
0.032223 0.087411 0.000000
0.043811 0.086977 0.000000
0.060061 0.086368 0.000000
0.082403 0.085531 0.000000
0.112771 0.084394 0.000000
0.153395 0.082872 0.000000
0.208802 0.080797 0.000000
0.283956 0.077982 0.000000
0.385914 0.074164 0.000000
0.524234 0.068983 0.000000
0.711235 0.061979 0.000000
0.964466 0.052495 0.000000
1.000000 0.039632 0.000000
1.000000 0.022208 0.000000
1.000000 0.000000 0.000000
1.000000 0.000000 0.000000
1.000000 0.000000 0.000000
1.000000 0.000000 0.000000
1.000000 0.000000 0.000000
1.000000 0.000000 0.000000
1.000000 0.000000 0.000000
1.000000 0.000000 0.000000
1.000000 0.000000 0.000000
1.000000 0.000000 0.000000
1.000000 0.000000 0.000000
1.000000 0.000000 0.000000
0.000000 0.122995 0.000000
0.001228 0.122717 0.000000
0.007688 0.122475 0.000000
0.015046 0.122200 0.000000
0.021573 0.121955 0.000000
0.029198 0.121670 0.000000
0.038122 0.121335 0.000000
0.049710 0.120901 0.000000
0.065959 0.120293 0.000000
0.088302 0.119456 0.000000
0.118670 0.118319 0.000000
0.159293 0.116797 0.000000
0.214701 0.114722 0.000000
0.289854 0.111907 0.000000
0.391813 0.108088 0.000000
0.530132 0.102908 0.000000
0.717134 0.095904 0.000000
0.970365 0.086420 0.000000
1.000000 0.073557 0.000000
1.000000 0.056132 0.000000
1.000000 0.032532 0.000000
1.000000 0.000566 0.000000
1.000000 0.000000 0.000000
1.000000 0.000000 0.000000
1.000000 0.000000 0.000000
1.000000 0.000000 0.000000
1.000000 0.000000 0.000000
1.000000 0.000000 0.000000
1.000000 0.000000 0.000000
1.000000 0.000000 0.000000
1.000000 0.000000 0.000000
1.000000 0.000000 0.000000
0.001847 0.169266 0.000000
0.009273 0.168988 0.000000
0.015733 0.168746 0.000000
0.023091 0.168471 0.000000
0.029618 0.168226 0.000000
0.037243 0.167941 0.000000
0.046167 0.167607 0.000000
0.057755 0.167173 0.000000
0.074004 0.166564 0.000000
0.096347 0.165727 0.000000
0.126715 0.164590 0.000000
0.167338 0.163068 0.000000
0.222746 0.160993 0.000000
0.297899 0.158178 0.000000
0.399858 0.154360 0.000000
0.538177 0.149179 0.000000
0.725179 0.142175 0.000000
0.978410 0.132691 0.000000
1.000000 0.119828 0.000000
1.000000 0.102403 0.000000
1.000000 0.078803 0.000000
1.000000 0.046837 0.000000
1.000000 0.003567 0.000000
1.000000 0.000000 0.000000
1.000000 0.000000 0.000000
1.000000 0.000000 0.000000
1.000000 0.000000 0.000000
1.000000 0.000000 0.000000
1.000000 0.000000 0.000000
1.000000 0.000000 0.000000
1.000000 0.000000 0.000000
1.000000 0.000000 0.000000
0.012759 0.232027 0.000000
0.020185 0.231749 0.000000
0.026645 0.231507 0.000000
0.034004 0.231232 0.000000
0.040530 0.230987 0.000000
0.048155 0.230702 0.000000
0.057079 0.230367 0.000000
0.068667 0.229933 0.000000
0.084916 0.229325 0.000000
0.107259 0.228488 0.000000
0.137627 0.227351 0.000000
0.178250 0.225829 0.000000
0.233658 0.223754 0.000000
0.308811 0.220939 0.000000
0.410770 0.217120 0.000000
0.549089 0.211940 0.000000
0.736091 0.204936 0.000000
0.989322 0.195452 0.000000
1.000000 0.182589 0.000000
1.000000 0.165164 0.000000
1.000000 0.141564 0.000000
1.000000 0.109598 0.000000
1.000000 0.066328 0.000000
1.000000 0.007699 0.000000
1.000000 0.000000 0.000000
1.000000 0.000000 0.000000
1.000000 0.000000 0.000000
1.000000 0.000000 0.000000
1.000000 0.000000 0.000000
1.000000 0.000000 0.000000
1.000000 0.000000 0.000000
1.000000 0.000000 0.000000
0.027564 0.317173 0.000000
0.034989 0.316895 0.000000
0.041449 0.316653 0.000000
0.048808 0.316377 0.000000
0.055334 0.316133 0.000000
0.062959 0.315847 0.000000
0.071883 0.315513 0.000000
0.083471 0.315079 0.000000
0.099720 0.314470 0.000000
0.122063 0.313634 0.000000
0.152431 0.312496 0.000000
0.193054 0.310975 0.000000
0.248462 0.308899 0.000000
0.323616 0.306085 0.000000
0.425574 0.302266 0.000000
0.563894 0.297085 0.000000
0.750895 0.290082 0.000000
1.000000 0.280597 0.000000
1.000000 0.267735 0.000000
1.000000 0.250310 0.000000
1.000000 0.226709 0.000000
1.000000 0.194743 0.000000
1.000000 0.151473 0.000000
1.000000 0.092845 0.000000
1.000000 0.013418 0.000000
1.000000 0.000000 0.000000
1.000000 0.000000 0.000000
1.000000 0.000000 0.000000
1.000000 0.000000 0.000000
1.000000 0.000000 0.000000
1.000000 0.000000 0.000000
1.000000 0.000000 0.000000
0.047647 0.432684 0.000000
0.055073 0.432406 0.000000
0.061532 0.432164 0.000000
0.068891 0.431888 0.000000
0.075418 0.431644 0.000000
0.083043 0.431358 0.000000
0.091967 0.431024 0.000000
0.103554 0.430590 0.000000
0.119804 0.429981 0.000000
0.142147 0.429145 0.000000
0.172514 0.428007 0.000000
0.213138 0.426486 0.000000
0.268546 0.424410 0.000000
0.343699 0.421596 0.000000
0.445658 0.417777 0.000000
0.583977 0.412597 0.000000
0.770978 0.405593 0.000000
1.000000 0.396108 0.000000
1.000000 0.383246 0.000000
1.000000 0.365821 0.000000
1.000000 0.342220 0.000000
1.000000 0.310254 0.000000
1.000000 0.266984 0.000000
1.000000 0.208356 0.000000
1.000000 0.128930 0.000000
1.000000 0.021388 0.000000
1.000000 0.000000 0.000000
1.000000 0.000000 0.000000
1.000000 0.000000 0.000000
1.000000 0.000000 0.000000
1.000000 0.000000 0.000000
1.000000 0.000000 0.000000
0.074799 0.588849 0.000000
0.082225 0.588571 0.000000
0.088685 0.588329 0.000000
0.096043 0.588053 0.000000
0.102570 0.587809 0.000000
0.110195 0.587523 0.000000
0.119119 0.587189 0.000000
0.130707 0.586755 0.000000
0.146956 0.586146 0.000000
0.169299 0.585310 0.000000
0.199667 0.584172 0.000000
0.240290 0.582651 0.000000
0.295698 0.580576 0.000000
0.370851 0.577761 0.000000
0.472810 0.573942 0.000000
0.611129 0.568762 0.000000
0.798131 0.561758 0.000000
1.000000 0.552273 0.000000
1.000000 0.539411 0.000000
1.000000 0.521986 0.000000
1.000000 0.498386 0.000000
1.000000 0.466419 0.000000
1.000000 0.423149 0.000000
1.000000 0.364521 0.000000
1.000000 0.285095 0.000000
1.000000 0.177553 0.000000
1.000000 0.031945 0.000000
1.000000 0.000000 0.000000
1.000000 0.000000 0.000000
1.000000 0.000000 0.000000
1.000000 0.000000 0.000000
1.000000 0.000000 0.000000
0.111568 0.800323 0.000000
0.118993 0.800045 0.000000
0.125453 0.799803 0.000000
0.132812 0.799527 0.000000
0.139338 0.799283 0.000000
0.146964 0.798997 0.000000
0.155887 0.798663 0.000000
0.167475 0.798229 0.000000
0.183724 0.797620 0.000000
0.206067 0.796783 0.000000
0.236435 0.795646 0.000000
0.277059 0.794125 0.000000
0.332466 0.792049 0.000000
0.407620 0.789235 0.000000
0.509578 0.785416 0.000000
0.647898 0.780235 0.000000
0.834899 0.773232 0.000000
1.000000 0.763747 0.000000
1.000000 0.750885 0.000000
1.000000 0.733460 0.000000
1.000000 0.709859 0.000000
1.000000 0.677893 0.000000
1.000000 0.634623 0.000000
1.000000 0.575995 0.000000
1.000000 0.496569 0.000000
1.000000 0.389027 0.000000
1.000000 0.243418 0.000000
1.000000 0.046280 0.000000
1.000000 0.000000 0.000000
1.000000 0.000000 0.000000
1.000000 0.000000 0.000000
1.000000 0.000000 0.000000
0.161434 1.000000 0.000000
0.168859 1.000000 0.000000
0.175319 1.000000 0.000000
0.182678 1.000000 0.000000
0.189204 1.000000 0.000000
0.196829 1.000000 0.000000
0.205753 1.000000 0.000000
0.217341 1.000000 0.000000
0.233590 1.000000 0.000000
0.255933 1.000000 0.000000
0.286301 1.000000 0.000000
0.326924 1.000000 0.000000
0.382332 1.000000 0.000000
0.457486 1.000000 0.000000
0.559444 1.000000 0.000000
0.697764 1.000000 0.000000
0.884765 1.000000 0.000000
1.000000 1.000000 0.000000
1.000000 1.000000 0.000000
1.000000 1.000000 0.000000
1.000000 0.996662 0.000000
1.000000 0.964696 0.000000
1.000000 0.921426 0.000000
1.000000 0.862798 0.000000
1.000000 0.783372 0.000000
1.000000 0.675830 0.000000
1.000000 0.530222 0.000000
1.000000 0.333083 0.000000
1.000000 0.066160 0.000000
1.000000 0.000000 0.000000
1.000000 0.000000 0.000000
1.000000 0.000000 0.000000
0.228985 1.000000 0.000000
0.236411 1.000000 0.000000
0.242870 1.000000 0.000000
0.250229 1.000000 0.000000
0.256756 1.000000 0.000000
0.264381 1.000000 0.000000
0.273305 1.000000 0.000000
0.284892 1.000000 0.000000
0.301142 1.000000 0.000000
0.323485 1.000000 0.000000
0.353852 1.000000 0.000000
0.394476 1.000000 0.000000
0.449884 1.000000 0.000000
0.525037 1.000000 0.000000
0.626996 1.000000 0.000000
0.765315 1.000000 0.000000
0.952316 1.000000 0.000000
1.000000 1.000000 0.000000
1.000000 1.000000 0.000000
1.000000 1.000000 0.000000
1.000000 1.000000 0.000000
1.000000 1.000000 0.000000
1.000000 1.000000 0.000000
1.000000 1.000000 0.000000
1.000000 1.000000 0.000000
1.000000 1.000000 0.000000
1.000000 0.918744 0.000000
1.000000 0.721606 0.000000
1.000000 0.454683 0.000000
1.000000 0.093317 0.000000
1.000000 0.000000 0.000000
1.000000 0.000000 0.000000
0.320478 1.000000 0.000000
0.327904 1.000000 0.000000
0.334364 1.000000 0.000000
0.341723 1.000000 0.000000
0.348249 1.000000 0.000000
0.355874 1.000000 0.000000
0.364798 1.000000 0.000000
0.376386 1.000000 0.000000
0.392635 1.000000 0.000000
0.414978 1.000000 0.000000
0.445346 1.000000 0.000000
0.485969 1.000000 0.000000
0.541377 1.000000 0.000000
0.616530 1.000000 0.000000
0.718489 1.000000 0.000000
0.856808 1.000000 0.000000
1.000000 1.000000 0.000000
1.000000 1.000000 0.000000
1.000000 1.000000 0.000000
1.000000 1.000000 0.000000
1.000000 1.000000 0.000000
1.000000 1.000000 0.000000
1.000000 1.000000 0.000000
1.000000 1.000000 0.000000
1.000000 1.000000 0.000000
1.000000 1.000000 0.000000
1.000000 1.000000 0.000000
1.000000 1.000000 0.000000
1.000000 0.980905 0.000000
1.000000 0.619540 0.000000
1.000000 0.130378 0.000000
1.000000 0.000000 0.000000
0.444403 1.000000 0.000000
0.451829 1.000000 0.000000
0.458289 1.000000 0.000000
0.465648 1.000000 0.000000
0.472174 1.000000 0.000000
0.479799 1.000000 0.000000
0.488723 1.000000 0.000000
0.500311 1.000000 0.000000
0.516560 1.000000 0.000000
0.538903 1.000000 0.000000
0.569271 1.000000 0.000000
0.609894 1.000000 0.000000
0.665302 1.000000 0.000000
0.740456 1.000000 0.000000
0.842414 1.000000 0.000000
0.980734 1.000000 0.000000
1.000000 1.000000 0.000000
1.000000 1.000000 0.000000
1.000000 1.000000 0.000000
1.000000 1.000000 0.000000
1.000000 1.000000 0.000000
1.000000 1.000000 0.000000
1.000000 1.000000 0.000000
1.000000 1.000000 0.000000
1.000000 1.000000 0.000000
1.000000 1.000000 0.000000
1.000000 1.000000 0.000000
1.000000 1.000000 0.000000
1.000000 1.000000 0.000000
1.000000 1.000000 0.000000
1.000000 0.843133 0.000000
1.000000 0.180998 0.000000
0.612151 1.000000 0.000000
0.619576 1.000000 0.000000
0.626036 1.000000 0.000000
0.633395 1.000000 0.000000
0.639921 1.000000 0.000000
0.647546 1.000000 0.000000
0.656470 1.000000 0.000000
0.668058 1.000000 0.000000
0.684307 1.000000 0.000000
0.706650 1.000000 0.000000
0.737018 1.000000 0.000000
0.777641 1.000000 0.000000
0.833049 1.000000 0.000000
0.908203 1.000000 0.000000
1.000000 1.000000 0.000000
1.000000 1.000000 0.000000
1.000000 1.000000 0.000000
1.000000 1.000000 0.000000
1.000000 1.000000 0.000000
1.000000 1.000000 0.000000
1.000000 1.000000 0.000000
1.000000 1.000000 0.000000
1.000000 1.000000 0.000000
1.000000 1.000000 0.000000
1.000000 1.000000 0.000000
1.000000 1.000000 0.000000
1.000000 1.000000 0.000000
1.000000 1.000000 0.000000
1.000000 1.000000 0.000000
1.000000 1.000000 0.000000
1.000000 1.000000 0.000000
1.000000 1.000000 0.000000
0.839438 1.000000 0.000000
0.846864 1.000000 0.000000
0.853324 1.000000 0.000000
0.860683 1.000000 0.000000
0.867209 1.000000 0.000000
0.874834 1.000000 0.000000
0.883758 1.000000 0.000000
0.895346 1.000000 0.000000
0.911595 1.000000 0.000000
0.933938 1.000000 0.000000
0.964306 1.000000 0.000000
1.000000 1.000000 0.000000
1.000000 1.000000 0.000000
1.000000 1.000000 0.000000
1.000000 1.000000 0.000000
1.000000 1.000000 0.000000
1.000000 1.000000 0.000000
1.000000 1.000000 0.000000
1.000000 1.000000 0.000000
1.000000 1.000000 0.000000
1.000000 1.000000 0.000000
1.000000 1.000000 0.000000
1.000000 1.000000 0.000000
1.000000 1.000000 0.000000
1.000000 1.000000 0.000000
1.000000 1.000000 0.000000
1.000000 1.000000 0.000000
1.000000 1.000000 0.000000
1.000000 1.000000 0.000000
1.000000 1.000000 0.000000
1.000000 1.000000 0.000000
1.000000 1.000000 0.000000
1.000000 1.000000 0.000000
1.000000 1.000000 0.000000
1.000000 1.000000 0.000000
1.000000 1.000000 0.000000
1.000000 1.000000 0.000000
1.000000 1.000000 0.000000
1.000000 1.000000 0.000000
1.000000 1.000000 0.000000
1.000000 1.000000 0.000000
1.000000 1.000000 0.000000
1.000000 1.000000 0.000000
1.000000 1.000000 0.000000
1.000000 1.000000 0.000000
1.000000 1.000000 0.000000
1.000000 1.000000 0.000000
1.000000 1.000000 0.000000
1.000000 1.000000 0.000000
1.000000 1.000000 0.000000
1.000000 1.000000 0.000000
1.000000 1.000000 0.000000
1.000000 1.000000 0.000000
1.000000 1.000000 0.000000
1.000000 1.000000 0.000000
1.000000 1.000000 0.000000
1.000000 1.000000 0.000000
1.000000 1.000000 0.000000
1.000000 1.000000 0.000000
1.000000 1.000000 0.000000
1.000000 1.000000 0.000000
1.000000 1.000000 0.000000
1.000000 1.000000 0.000000
1.000000 1.000000 0.000000
1.000000 1.000000 0.000000
1.000000 1.000000 0.000000
1.000000 1.000000 0.000000
1.000000 1.000000 0.000000
1.000000 1.000000 0.000000
1.000000 1.000000 0.000000
1.000000 1.000000 0.000000
1.000000 1.000000 0.000000
1.000000 1.000000 0.000000
1.000000 1.000000 0.000000
1.000000 1.000000 0.000000
1.000000 1.000000 0.000000
1.000000 1.000000 0.000000
1.000000 1.000000 0.000000
1.000000 1.000000 0.000000
1.000000 1.000000 0.000000
1.000000 1.000000 0.000000
1.000000 1.000000 0.000000
1.000000 1.000000 0.000000
1.000000 1.000000 0.000000
1.000000 1.000000 0.000000
1.000000 1.000000 0.000000
1.000000 1.000000 0.000000
1.000000 1.000000 0.000000
1.000000 1.000000 0.000000
1.000000 1.000000 0.000000
1.000000 1.000000 0.000000
1.000000 1.000000 0.000000
1.000000 1.000000 0.000000
1.000000 1.000000 0.000000
1.000000 1.000000 0.000000
1.000000 1.000000 0.000000
1.000000 1.000000 0.000000
1.000000 1.000000 0.000000
1.000000 1.000000 0.000000
1.000000 1.000000 0.000000
1.000000 1.000000 0.000000
1.000000 1.000000 0.000000
1.000000 1.000000 0.000000
1.000000 1.000000 0.000000
1.000000 1.000000 0.000000
1.000000 1.000000 0.000000
1.000000 1.000000 0.000000
1.000000 1.000000 0.000000
1.000000 1.000000 0.000000
1.000000 1.000000 0.000000
1.000000 1.000000 0.000000
1.000000 1.000000 0.000000
1.000000 1.000000 0.000000
1.000000 1.000000 0.000000
1.000000 1.000000 0.000000
1.000000 1.000000 0.000000
1.000000 1.000000 0.000000
1.000000 1.000000 0.000000
1.000000 1.000000 0.000000
1.000000 1.000000 0.000000
1.000000 1.000000 0.000000
1.000000 1.000000 0.000000
1.000000 1.000000 0.000000
1.000000 1.000000 0.000000
1.000000 1.000000 0.000000
1.000000 1.000000 0.000000
1.000000 1.000000 0.000000
1.000000 1.000000 0.000000
1.000000 1.000000 0.000000
1.000000 1.000000 0.000000
1.000000 1.000000 0.000000
1.000000 1.000000 0.000000
1.000000 1.000000 0.000000
1.000000 1.000000 0.000000
1.000000 1.000000 0.000000
1.000000 1.000000 0.000000
1.000000 1.000000 0.000000
1.000000 1.000000 0.000000
1.000000 1.000000 0.000000
1.000000 1.000000 0.000000
1.000000 1.000000 0.000000
1.000000 1.000000 0.000000
1.000000 1.000000 0.000000
1.000000 1.000000 0.000000
1.000000 1.000000 0.000000
1.000000 1.000000 0.000000
