Assets/Samples/High Definition RP/10.5.0/Additional Post-processing Data/Orange.CUBE
#Created by: Adobe Photoshop Export Color Lookup Plugin
TITLE "Frame.psd"
#LUT size
LUT_3D_SIZE 8
#data domain
#LUT data points
DOMAIN_MIN 0.000000 0.000000 0.000000
DOMAIN_MAX 0.903226 0.903226 0.903226
0.000000 0.000000 0.000000
0.000000 0.000000 0.000000
0.041930 0.000000 0.000000
0.190672 0.000000 0.000000
0.693105 0.000000 0.000000
1.000000 0.000000 0.000000
1.000000 0.000000 0.000000
1.000000 0.000000 0.000000
0.000000 0.007985 0.000000
0.001576 0.006945 0.000000
0.045962 0.005282 0.000000
0.194704 0.000000 0.000000
0.697137 0.000000 0.000000
1.000000 0.000000 0.000000
1.000000 0.000000 0.000000
1.000000 0.000000 0.000000
0.000000 0.045052 0.000000
0.008021 0.044012 0.000000
0.052407 0.042349 0.000000
0.201149 0.036778 0.000000
0.703582 0.017961 0.000000
1.000000 0.000000 0.000000
1.000000 0.000000 0.000000
1.000000 0.000000 0.000000
0.001847 0.169266 0.000000
0.029618 0.168226 0.000000
0.074004 0.166564 0.000000
0.222746 0.160993 0.000000
0.725179 0.142175 0.000000
1.000000 0.078803 0.000000
1.000000 0.000000 0.000000
1.000000 0.000000 0.000000
0.074799 0.588849 0.000000
0.102570 0.587809 0.000000
0.146956 0.586146 0.000000
0.295698 0.580576 0.000000
0.798131 0.561758 0.000000
1.000000 0.498386 0.000000
1.000000 0.285095 0.000000
1.000000 0.000000 0.000000
0.320478 1.000000 0.000000
0.348249 1.000000 0.000000
0.392635 1.000000 0.000000
0.541377 1.000000 0.000000
1.000000 1.000000 0.000000
1.000000 1.000000 0.000000
1.000000 1.000000 0.000000
1.000000 0.980905 0.000000
1.000000 1.000000 0.000000
1.000000 1.000000 0.000000
1.000000 1.000000 0.000000
1.000000 1.000000 0.000000
1.000000 1.000000 0.000000
1.000000 1.000000 0.000000
1.000000 1.000000 0.000000
1.000000 1.000000 0.000000
1.000000 1.000000 0.000000
1.000000 1.000000 0.000000
1.000000 1.000000 0.000000
1.000000 1.000000 0.000000
1.000000 1.000000 0.000000
1.000000 1.000000 0.000000
1.000000 1.000000 0.000000
1.000000 1.000000 0.000000
0.000000 0.000000 0.003548
0.007482 0.000000 0.003244
0.051868 0.000000 0.002756
0.200610 0.000000 0.001123
0.703043 0.000000 0.000000
1.000000 0.000000 0.000000
1.000000 0.000000 0.000000
1.000000 0.000000 0.000000
0.000000 0.006833 0.001357
0.011514 0.005793 0.001052
0.055900 0.004130 0.000565
0.204642 0.000000 0.000000
0.707075 0.000000 0.000000
1.000000 0.000000 0.000000
1.000000 0.000000 0.000000
1.000000 0.000000 0.000000
0.000000 0.043900 0.000000
0.017959 0.042860 0.000000
0.062345 0.041197 0.000000
0.211087 0.035626 0.000000
0.713520 0.016809 0.000000
1.000000 0.000000 0.000000
1.000000 0.000000 0.000000
1.000000 0.000000 0.000000
0.011785 0.168114 0.000000
0.039556 0.167074 0.000000
0.083942 0.165412 0.000000
0.232684 0.159841 0.000000
0.735117 0.141023 0.000000
1.000000 0.077651 0.000000
1.000000 0.000000 0.000000
1.000000 0.000000 0.000000
0.084737 0.587697 0.000000
0.112508 0.586657 0.000000
0.156894 0.584994 0.000000
0.305636 0.579423 0.000000
0.808069 0.560606 0.000000
1.000000 0.497233 0.000000
1.000000 0.283943 0.000000
1.000000 0.000000 0.000000
0.330416 1.000000 0.000000
0.358187 1.000000 0.000000
0.402573 1.000000 0.000000
0.551315 1.000000 0.000000
1.000000 1.000000 0.000000
1.000000 1.000000 0.000000
1.000000 1.000000 0.000000
1.000000 0.979753 0.000000
1.000000 1.000000 0.000000
1.000000 1.000000 0.000000
1.000000 1.000000 0.000000
1.000000 1.000000 0.000000
1.000000 1.000000 0.000000
1.000000 1.000000 0.000000
1.000000 1.000000 0.000000
1.000000 1.000000 0.000000
1.000000 1.000000 0.000000
1.000000 1.000000 0.000000
1.000000 1.000000 0.000000
1.000000 1.000000 0.000000
1.000000 1.000000 0.000000
1.000000 1.000000 0.000000
1.000000 1.000000 0.000000
1.000000 1.000000 0.000000
0.000000 0.000000 0.013633
0.023366 0.000000 0.013328
0.067752 0.000000 0.012841
0.216494 0.000000 0.011208
0.718927 0.000000 0.005692
1.000000 0.000000 0.000000
1.000000 0.000000 0.000000
1.000000 0.000000 0.000000
0.000000 0.004991 0.011441
0.027399 0.003951 0.011136
0.071785 0.002289 0.010649
0.220527 0.000000 0.009016
0.722959 0.000000 0.003501
1.000000 0.000000 0.000000
1.000000 0.000000 0.000000
1.000000 0.000000 0.000000
0.006073 0.042058 0.007938
0.033843 0.041018 0.007633
0.078229 0.039356 0.007146
0.226971 0.033785 0.005513
0.729404 0.014967 0.000000
1.000000 0.000000 0.000000
1.000000 0.000000 0.000000
1.000000 0.000000 0.000000
0.027670 0.166273 0.000000
0.055440 0.165233 0.000000
0.099826 0.163570 0.000000
0.248568 0.158000 0.000000
0.751001 0.139182 0.000000
1.000000 0.075810 0.000000
1.000000 0.000000 0.000000
1.000000 0.000000 0.000000
0.100622 0.585855 0.000000
0.128392 0.584815 0.000000
0.172778 0.583153 0.000000
0.321520 0.577582 0.000000
0.823953 0.558764 0.000000
1.000000 0.495392 0.000000
1.000000 0.282101 0.000000
1.000000 0.000000 0.000000
0.346301 1.000000 0.000000
0.374071 1.000000 0.000000
0.418457 1.000000 0.000000
0.567199 1.000000 0.000000
1.000000 1.000000 0.000000
1.000000 1.000000 0.000000
1.000000 1.000000 0.000000
1.000000 0.977912 0.000000
1.000000 1.000000 0.000000
1.000000 1.000000 0.000000
1.000000 1.000000 0.000000
1.000000 1.000000 0.000000
1.000000 1.000000 0.000000
1.000000 1.000000 0.000000
1.000000 1.000000 0.000000
1.000000 1.000000 0.000000
1.000000 1.000000 0.000000
1.000000 1.000000 0.000000
1.000000 1.000000 0.000000
1.000000 1.000000 0.000000
1.000000 1.000000 0.000000
1.000000 1.000000 0.000000
1.000000 1.000000 0.000000
1.000000 1.000000 0.000000
0.048825 0.000000 0.047427
0.076596 0.000000 0.047122
0.120982 0.000000 0.046635
0.269724 0.000000 0.045002
0.772157 0.000000 0.039487
1.000000 0.000000 0.020912
1.000000 0.000000 0.000000
1.000000 0.000000 0.000000
0.052858 0.000000 0.045235
0.080628 0.000000 0.044930
0.125014 0.000000 0.044443
0.273756 0.000000 0.042810
0.776189 0.000000 0.037295
1.000000 0.000000 0.018720
1.000000 0.000000 0.000000
1.000000 0.000000 0.000000
0.059302 0.035888 0.041732
0.087073 0.034848 0.041427
0.131459 0.033185 0.040940
0.280201 0.027614 0.039307
0.782634 0.008797 0.033792
1.000000 0.000000 0.015217
1.000000 0.000000 0.000000
1.000000 0.000000 0.000000
0.080899 0.160102 0.029993
0.108670 0.159062 0.029688
0.153056 0.157400 0.029201
0.301798 0.151829 0.027568
0.804231 0.133011 0.022053
1.000000 0.069639 0.003478
1.000000 0.000000 0.000000
1.000000 0.000000 0.000000
0.153851 0.579685 0.000000
0.181622 0.578645 0.000000
0.226008 0.576982 0.000000
0.374750 0.571411 0.000000
0.877183 0.552594 0.000000
1.000000 0.489221 0.000000
1.000000 0.275931 0.000000
1.000000 0.000000 0.000000
0.399530 1.000000 0.000000
0.427301 1.000000 0.000000
0.471687 1.000000 0.000000
0.620429 1.000000 0.000000
1.000000 1.000000 0.000000
1.000000 1.000000 0.000000
1.000000 1.000000 0.000000
1.000000 0.971741 0.000000
1.000000 1.000000 0.000000
1.000000 1.000000 0.000000
1.000000 1.000000 0.000000
1.000000 1.000000 0.000000
1.000000 1.000000 0.000000
1.000000 1.000000 0.000000
1.000000 1.000000 0.000000
1.000000 1.000000 0.000000
1.000000 1.000000 0.000000
1.000000 1.000000 0.000000
1.000000 1.000000 0.000000
1.000000 1.000000 0.000000
1.000000 1.000000 0.000000
1.000000 1.000000 0.000000
1.000000 1.000000 0.000000
1.000000 1.000000 0.000000
0.228629 0.000000 0.161579
0.256399 0.000000 0.161274
0.300786 0.000000 0.160787
0.449527 0.000000 0.159154
0.951960 0.000000 0.153639
1.000000 0.000000 0.135065
1.000000 0.000000 0.072549
1.000000 0.000000 0.000000
0.232661 0.000000 0.159388
0.260432 0.000000 0.159083
0.304818 0.000000 0.158595
0.453560 0.000000 0.156963
0.955992 0.000000 0.151447
1.000000 0.000000 0.132873
1.000000 0.000000 0.070358
1.000000 0.000000 0.000000
0.239106 0.015044 0.155885
0.266876 0.014004 0.155580
0.311262 0.012341 0.155092
0.460004 0.006771 0.153460
0.962437 0.000000 0.147944
1.000000 0.000000 0.129370
1.000000 0.000000 0.066854
1.000000 0.000000 0.000000
0.260703 0.139259 0.144145
0.288473 0.138219 0.143841
0.332859 0.136556 0.143353
0.481601 0.130985 0.141720
0.984034 0.112168 0.136205
1.000000 0.048795 0.117631
1.000000 0.000000 0.055115
1.000000 0.000000 0.000000
0.333655 0.558841 0.104492
0.361425 0.557801 0.104187
0.405811 0.556139 0.103700
0.554553 0.550568 0.102067
1.000000 0.531750 0.096552
1.000000 0.468378 0.077977
1.000000 0.255087 0.015462
1.000000 0.000000 0.000000
0.579334 1.000000 0.000000
0.607104 1.000000 0.000000
0.651490 1.000000 0.000000
0.800232 1.000000 0.000000
1.000000 1.000000 0.000000
1.000000 1.000000 0.000000
1.000000 1.000000 0.000000
1.000000 0.950898 0.000000
1.000000 1.000000 0.000000
1.000000 1.000000 0.000000
1.000000 1.000000 0.000000
1.000000 1.000000 0.000000
1.000000 1.000000 0.000000
1.000000 1.000000 0.000000
1.000000 1.000000 0.000000
1.000000 1.000000 0.000000
1.000000 1.000000 0.000000
1.000000 1.000000 0.000000
1.000000 1.000000 0.000000
1.000000 1.000000 0.000000
1.000000 1.000000 0.000000
1.000000 1.000000 0.000000
1.000000 1.000000 0.000000
1.000000 1.000000 0.000000
0.834150 0.000000 0.546009
0.861921 0.000000 0.545704
0.906307 0.000000 0.545216
1.000000 0.000000 0.543584
1.000000 0.000000 0.538068
1.000000 0.000000 0.519494
1.000000 0.000000 0.456979
1.000000 0.000000 0.246765
0.838182 0.000000 0.543817
0.865953 0.000000 0.543512
0.910339 0.000000 0.543025
1.000000 0.000000 0.541392
1.000000 0.000000 0.535876
1.000000 0.000000 0.517302
1.000000 0.000000 0.454787
1.000000 0.000000 0.244573
0.844627 0.000000 0.540314
0.872398 0.000000 0.540009
0.916784 0.000000 0.539522
1.000000 0.000000 0.537889
1.000000 0.000000 0.532373
1.000000 0.000000 0.513799
1.000000 0.000000 0.451284
1.000000 0.000000 0.241070
0.866224 0.069064 0.528575
0.893995 0.068024 0.528270
0.938381 0.066361 0.527783
1.000000 0.060790 0.526150
1.000000 0.041973 0.520634
1.000000 0.000000 0.502060
1.000000 0.000000 0.439545
1.000000 0.000000 0.229331
0.939176 0.488646 0.488921
0.966946 0.487606 0.488616
1.000000 0.485944 0.488129
1.000000 0.480373 0.486496
1.000000 0.461555 0.480981
1.000000 0.398183 0.462407
1.000000 0.184892 0.399891
1.000000 0.000000 0.189678
1.000000 1.000000 0.355381
1.000000 1.000000 0.355076
1.000000 1.000000 0.354589
1.000000 1.000000 0.352956
1.000000 1.000000 0.347441
1.000000 1.000000 0.328867
1.000000 1.000000 0.266351
1.000000 0.880703 0.056138
1.000000 1.000000 0.000000
1.000000 1.000000 0.000000
1.000000 1.000000 0.000000
1.000000 1.000000 0.000000
1.000000 1.000000 0.000000
1.000000 1.000000 0.000000
1.000000 1.000000 0.000000
1.000000 1.000000 0.000000
1.000000 1.000000 0.000000
1.000000 1.000000 0.000000
1.000000 1.000000 0.000000
1.000000 1.000000 0.000000
1.000000 1.000000 0.000000
1.000000 1.000000 0.000000
1.000000 1.000000 0.000000
1.000000 1.000000 0.000000
1.000000 0.000000 1.000000
1.000000 0.000000 1.000000
1.000000 0.000000 1.000000
1.000000 0.000000 1.000000
1.000000 0.000000 1.000000
1.000000 0.000000 1.000000
1.000000 0.000000 1.000000
1.000000 0.000000 1.000000
1.000000 0.000000 1.000000
1.000000 0.000000 1.000000
1.000000 0.000000 1.000000
1.000000 0.000000 1.000000
1.000000 0.000000 1.000000
1.000000 0.000000 1.000000
1.000000 0.000000 1.000000
1.000000 0.000000 1.000000
1.000000 0.000000 1.000000
1.000000 0.000000 1.000000
1.000000 0.000000 1.000000
1.000000 0.000000 1.000000
1.000000 0.000000 1.000000
1.000000 0.000000 1.000000
1.000000 0.000000 1.000000
1.000000 0.000000 1.000000
1.000000 0.000000 1.000000
1.000000 0.000000 1.000000
1.000000 0.000000 1.000000
1.000000 0.000000 1.000000
1.000000 0.000000 1.000000
1.000000 0.000000 1.000000
1.000000 0.000000 1.000000
1.000000 0.000000 1.000000
1.000000 0.252393 1.000000
1.000000 0.251353 1.000000
1.000000 0.249690 1.000000
1.000000 0.244119 1.000000
1.000000 0.225302 1.000000
1.000000 0.161929 1.000000
1.000000 0.000000 1.000000
1.000000 0.000000 1.000000
1.000000 1.000000 1.000000
1.000000 1.000000 1.000000
1.000000 1.000000 1.000000
1.000000 1.000000 1.000000
1.000000 1.000000 1.000000
1.000000 1.000000 1.000000
1.000000 1.000000 1.000000
1.000000 0.644449 1.000000
1.000000 1.000000 1.000000
1.000000 1.000000 1.000000
1.000000 1.000000 1.000000
1.000000 1.000000 1.000000
1.000000 1.000000 1.000000
1.000000 1.000000 1.000000
1.000000 1.000000 1.000000
1.000000 1.000000 0.900550
1.000000 1.000000 0.000000
1.000000 1.000000 0.000000
1.000000 1.000000 0.000000
1.000000 1.000000 0.000000
1.000000 1.000000 0.000000
1.000000 1.000000 0.000000
1.000000 1.000000 0.000000
1.000000 1.000000 0.000000
1.000000 0.000000 1.000000
1.000000 0.000000 1.000000
1.000000 0.000000 1.000000
1.000000 0.000000 1.000000
1.000000 0.000000 1.000000
1.000000 0.000000 1.000000
1.000000 0.000000 1.000000
1.000000 0.000000 1.000000
1.000000 0.000000 1.000000
1.000000 0.000000 1.000000
1.000000 0.000000 1.000000
1.000000 0.000000 1.000000
1.000000 0.000000 1.000000
1.000000 0.000000 1.000000
1.000000 0.000000 1.000000
1.000000 0.000000 1.000000
1.000000 0.000000 1.000000
1.000000 0.000000 1.000000
1.000000 0.000000 1.000000
1.000000 0.000000 1.000000
1.000000 0.000000 1.000000
1.000000 0.000000 1.000000
1.000000 0.000000 1.000000
1.000000 0.000000 1.000000
1.000000 0.000000 1.000000
1.000000 0.000000 1.000000
1.000000 0.000000 1.000000
1.000000 0.000000 1.000000
1.000000 0.000000 1.000000
1.000000 0.000000 1.000000
1.000000 0.000000 1.000000
1.000000 0.000000 1.000000
1.000000 0.000000 1.000000
1.000000 0.000000 1.000000
1.000000 0.000000 1.000000
1.000000 0.000000 1.000000
1.000000 0.000000 1.000000
1.000000 0.000000 1.000000
1.000000 0.000000 1.000000
1.000000 0.000000 1.000000
1.000000 0.870989 1.000000
1.000000 0.869949 1.000000
1.000000 0.868287 1.000000
1.000000 0.862716 1.000000
1.000000 0.843898 1.000000
1.000000 0.780526 1.000000
1.000000 0.567235 1.000000
1.000000 0.000000 1.000000
1.000000 1.000000 1.000000
1.000000 1.000000 1.000000
1.000000 1.000000 1.000000
1.000000 1.000000 1.000000
1.000000 1.000000 1.000000
1.000000 1.000000 1.000000
1.000000 1.000000 1.000000
1.000000 1.000000 1.000000
1.000000 1.000000 1.000000
1.000000 1.000000 1.000000
1.000000 1.000000 1.000000
1.000000 1.000000 1.000000
1.000000 1.000000 1.000000
1.000000 1.000000 1.000000
1.000000 1.000000 1.000000
1.000000 1.000000 1.000000
