Assets/Samples/High Definition RP/10.5.0/Additional Post-processing Data/Orange.3DL
#Created by: Adobe Photoshop Export Color Lookup Plugin
#Description: Frame.psd
0 33 66 99 132 165 198 231 264 297 330 363 396 429 462 495 528 561 594 627 660 693 726 759 792 825 858 891 924 957 990 1023
0 0 0
0 0 0
0 0 2
0 0 8
0 0 15
0 0 22
0 0 30
0 0 41
0 0 56
15 0 77
59 0 105
119 0 143
200 0 194
310 0 264
459 0 359
662 0 488
936 0 662
1307 0 897
1811 0 1217
2492 0 1650
3416 0 2236
4095 0 3030
4095 0 4095
4095 0 4095
4095 0 4095
4095 0 4095
4095 0 4095
4095 0 4095
4095 0 4095
4095 0 4095
4095 0 4095
4095 0 4095
0 0 0
0 0 0
0 0 0
0 0 6
0 0 12
0 0 19
0 0 28
0 0 38
0 0 53
19 0 74
64 0 102
123 0 140
204 0 192
314 0 262
464 0 357
667 0 485
941 0 659
1312 0 895
1815 0 1214
2497 0 1647
3420 0 2234
4095 0 3028
4095 0 4095
4095 0 4095
4095 0 4095
4095 0 4095
4095 0 4095
4095 0 4095
4095 0 4095
4095 0 4095
4095 0 4095
4095 0 4095
0 0 0
0 0 0
0 0 0
0 0 4
0 0 10
0 0 17
0 0 25
0 0 36
0 0 51
23 0 72
67 0 100
127 0 138
208 0 190
318 0 260
468 0 355
670 0 483
944 0 657
1316 0 893
1819 0 1212
2501 0 1645
3424 0 2231
4095 0 3025
4095 0 4095
4095 0 4095
4095 0 4095
4095 0 4095
4095 0 4095
4095 0 4095
4095 0 4095
4095 0 4095
4095 0 4095
4095 0 4095
0 10 0
0 9 0
0 8 0
0 7 2
0 6 8
0 4 15
0 3 23
0 1 34
0 0 49
27 0 70
72 0 98
131 0 136
213 0 187
323 0 257
472 0 352
675 0 481
949 0 655
1320 0 890
1823 0 1210
2505 0 1643
3428 0 2229
4095 0 3023
4095 0 4095
4095 0 4095
4095 0 4095
4095 0 4095
4095 0 4095
4095 0 4095
4095 0 4095
4095 0 4095
4095 0 4095
4095 0 4095
0 33 0
0 31 0
0 30 0
0 29 0
0 28 6
0 27 13
0 25 21
0 23 32
0 20 47
31 17 68
76 11 96
135 5 134
216 0 185
327 0 255
476 0 350
679 0 479
953 0 653
1324 0 888
1827 0 1208
2509 0 1641
3432 0 2227
4095 0 3021
4095 0 4095
4095 0 4095
4095 0 4095
4095 0 4095
4095 0 4095
4095 0 4095
4095 0 4095
4095 0 4095
4095 0 4095
4095 0 4095
0 59 0
0 58 0
0 56 0
0 55 0
0 54 3
0 53 10
0 51 18
0 49 29
3 47 44
36 43 65
80 38 93
140 31 131
221 21 183
331 8 253
481 0 348
683 0 476
957 0 650
1328 0 886
1832 0 1205
2513 0 1638
3437 0 2224
4095 0 3019
4095 0 4093
4095 0 4095
4095 0 4095
4095 0 4095
4095 0 4095
4095 0 4095
4095 0 4095
4095 0 4095
4095 0 4095
4095 0 4095
0 89 0
0 88 0
0 87 0
0 86 0
0 85 0
0 83 7
0 82 16
0 80 26
8 77 42
41 73 62
86 68 91
145 61 128
226 52 180
336 39 250
486 22 345
689 0 473
963 0 647
1334 0 883
1837 0 1202
2519 0 1635
3442 0 2222
4095 0 3016
4095 0 4091
4095 0 4095
4095 0 4095
4095 0 4095
4095 0 4095
4095 0 4095
4095 0 4095
4095 0 4095
4095 0 4095
4095 0 4095
0 129 0
0 128 0
0 127 0
0 125 0
0 124 0
0 123 4
0 121 12
0 119 23
15 117 38
48 113 59
92 108 87
152 101 125
233 91 176
343 79 246
493 61 341
695 38 470
969 6 644
1341 0 879
1844 0 1199
2526 0 1632
3449 0 2218
4095 0 3012
4095 0 4087
4095 0 4095
4095 0 4095
4095 0 4095
4095 0 4095
4095 0 4095
4095 0 4095
4095 0 4095
4095 0 4095
4095 0 4095
0 184 0
0 183 0
0 182 0
0 181 0
0 180 0
0 178 0
0 177 7
1 175 17
25 172 33
58 168 53
102 163 82
162 156 119
243 147 171
353 134 241
502 117 336
705 93 464
979 62 638
1350 19 874
1854 0 1193
2535 0 1626
3459 0 2213
4095 0 3007
4095 0 4082
4095 0 4095
4095 0 4095
4095 0 4095
4095 0 4095
4095 0 4095
4095 0 4095
4095 0 4095
4095 0 4095
4095 0 4095
0 261 0
0 260 0
0 259 0
0 257 0
0 256 0
0 255 0
0 253 0
14 251 10
38 249 25
71 245 46
115 240 74
175 233 112
256 223 164
366 211 234
516 193 328
718 170 457
992 138 631
1364 95 867
1867 37 1186
2549 0 1619
3472 0 2205
4095 0 2999
4095 0 4074
4095 0 4095
4095 0 4095
4095 0 4095
4095 0 4095
4095 0 4095
4095 0 4095
4095 0 4095
4095 0 4095
4095 0 4095
0 365 0
0 363 0
0 362 0
0 361 0
0 360 0
2 359 0
15 357 0
32 355 0
56 352 15
89 349 36
133 344 65
193 337 102
274 327 154
384 314 224
534 297 319
736 274 447
1010 242 621
1382 199 857
1885 140 1176
2567 61 1609
3490 0 2196
4095 0 2990
4095 0 4064
4095 0 4095
4095 0 4095
4095 0 4095
4095 0 4095
4095 0 4095
4095 0 4095
4095 0 4095
4095 0 4095
4095 0 4095
0 504 0
0 502 0
0 501 0
6 500 0
15 499 0
26 498 0
40 496 0
57 494 0
80 491 2
113 488 23
158 482 51
217 476 89
298 466 141
408 453 211
558 436 306
761 413 434
1035 381 608
1406 338 844
1909 279 1163
2591 200 1596
3514 93 2182
4095 0 2976
4095 0 4051
4095 0 4095
4095 0 4095
4095 0 4095
4095 0 4095
4095 0 4095
4095 0 4095
4095 0 4095
4095 0 4095
4095 0 4095
8 693 0
18 692 0
28 691 0
39 690 0
48 688 0
59 687 0
73 686 0
89 684 0
113 681 0
146 677 5
191 672 33
250 665 71
331 656 123
441 643 193
591 626 288
794 602 416
1068 570 590
1439 527 826
1942 469 1145
2624 390 1578
3547 283 2165
4095 138 2959
4095 0 4033
4095 0 4095
4095 0 4095
4095 0 4095
4095 0 4095
4095 0 4095
4095 0 4095
4095 0 4095
4095 0 4095
4095 0 4095
52 950 0
63 949 0
73 948 0
83 947 0
93 945 0
104 944 0
117 943 0
134 941 0
158 938 0
191 934 0
235 929 9
295 922 47
376 913 99
486 900 168
636 883 263
838 859 392
1112 827 566
1483 784 802
1987 726 1121
2668 647 1554
3592 540 2140
4095 395 2934
4095 199 4009
4095 0 4095
4095 0 4095
4095 0 4095
4095 0 4095
4095 0 4095
4095 0 4095
4095 0 4095
4095 0 4095
4095 0 4095
113 1299 0
124 1298 0
133 1296 0
144 1295 0
154 1294 0
165 1293 0
178 1291 0
195 1289 0
219 1287 0
251 1283 0
296 1278 0
355 1271 14
437 1261 66
547 1249 136
696 1231 230
899 1208 359
1173 1176 533
1544 1133 769
2047 1075 1088
2729 996 1521
3652 888 2107
4095 743 2901
4095 547 3976
4095 281 4095
4095 0 4095
4095 0 4095
4095 0 4095
4095 0 4095
4095 0 4095
4095 0 4095
4095 0 4095
4095 0 4095
195 1772 0
206 1771 0
215 1769 0
226 1768 0
236 1767 0
247 1766 0
260 1764 0
277 1762 0
301 1760 0
334 1756 0
378 1751 0
438 1744 0
519 1734 21
629 1722 91
778 1704 186
981 1681 314
1255 1649 488
1626 1606 724
2130 1548 1043
2811 1469 1476
3735 1362 2063
4095 1217 2857
4095 1020 3932
4095 754 4095
4095 394 4095
4095 0 4095
4095 0 4095
4095 0 4095
4095 0 4095
4095 0 4095
4095 0 4095
4095 0 4095
306 2411 0
317 2410 0
327 2409 0
337 2408 0
347 2407 0
358 2405 0
371 2404 0
388 2402 0
412 2399 0
445 2395 0
489 2390 0
549 2383 0
630 2374 0
740 2361 30
890 2344 125
1092 2320 254
1366 2288 428
1737 2245 663
2241 2187 983
2922 2108 1416
3846 2001 2002
4095 1856 2796
4095 1660 3871
4095 1394 4095
4095 1034 4095
4095 546 4095
4095 0 4095
4095 0 4095
4095 0 4095
4095 0 4095
4095 0 4095
4095 0 4095
457 3277 0
468 3276 0
477 3275 0
488 3274 0
498 3273 0
509 3271 0
522 3270 0
539 3268 0
563 3265 0
595 3261 0
640 3256 0
699 3249 0
781 3240 0
891 3227 0
1040 3210 43
1243 3186 172
1517 3154 346
1888 3111 582
2391 3053 901
3073 2974 1334
3996 2867 1920
4095 2722 2714
4095 2526 3789
4095 2260 4095
4095 1900 4095
4095 1412 4095
4095 751 4095
4095 0 4095
4095 0 4095
4095 0 4095
4095 0 4095
4095 0 4095
661 4095 0
672 4095 0
681 4095 0
692 4095 0
702 4095 0
713 4095 0
726 4095 0
743 4095 0
767 4095 0
800 4095 0
844 4095 0
904 4095 0
985 4095 0
1095 4095 0
1244 4095 0
1447 4095 61
1721 4095 235
2092 4095 471
2595 4095 790
3277 4095 1223
4095 4041 1809
4095 3896 2603
4095 3700 3678
4095 3434 4095
4095 3074 4095
4095 2586 4095
4095 1926 4095
4095 1032 4095
4095 0 4095
4095 0 4095
4095 0 4095
4095 0 4095
938 4095 0
949 4095 0
958 4095 0
969 4095 0
978 4095 0
990 4095 0
1003 4095 0
1020 4095 0
1043 4095 0
1076 4095 0
1121 4095 0
1180 4095 0
1261 4095 0
1372 4095 0
1521 4095 0
1724 4095 0
1998 4095 85
2369 4095 320
2872 4095 640
3554 4095 1073
4095 4095 1659
4095 4095 2453
4095 4095 3528
4095 4095 4095
4095 4095 4095
4095 4095 4095
4095 3517 4095
4095 2623 4095
4095 1412 4095
4095 0 4095
4095 0 4095
4095 0 4095
1312 4095 0
1323 4095 0
1333 4095 0
1343 4095 0
1353 4095 0
1364 4095 0
1377 4095 0
1394 4095 0
1418 4095 0
1451 4095 0
1495 4095 0
1555 4095 0
1636 4095 0
1746 4095 0
1896 4095 0
2098 4095 0
2372 4095 0
2743 4095 117
3247 4095 436
3929 4095 869
4095 4095 1455
4095 4095 2249
4095 4095 3324
4095 4095 4095
4095 4095 4095
4095 4095 4095
4095 4095 4095
4095 4095 4095
4095 3567 4095
4095 1928 4095
4095 0 4095
4095 0 4095
1820 4095 0
1831 4095 0
1840 4095 0
1851 4095 0
1861 4095 0
1872 4095 0
1885 4095 0
1902 4095 0
1926 4095 0
1958 4095 0
2003 4095 0
2062 4095 0
2144 4095 0
2254 4095 0
2403 4095 0
2606 4095 0
2880 4095 0
3251 4095 0
3754 4095 160
4095 4095 593
4095 4095 1179
4095 4095 1974
4095 4095 3048
4095 4095 4095
4095 4095 4095
4095 4095 4095
4095 4095 4095
4095 4095 4095
4095 4095 4095
4095 4095 4095
4095 2628 4095
4095 0 4095
2507 4095 0
2518 4095 0
2527 4095 0
2538 4095 0
2547 4095 0
2559 4095 0
2572 4095 0
2589 4095 0
2612 4095 0
2645 4095 0
2690 4095 0
2749 4095 0
2830 4095 0
2941 4095 0
3090 4095 0
3293 4095 0
3567 4095 0
3938 4095 0
4095 4095 0
4095 4095 220
4095 4095 806
4095 4095 1600
4095 4095 2675
4095 4095 4095
4095 4095 4095
4095 4095 4095
4095 4095 4095
4095 4095 4095
4095 4095 4095
4095 4095 4095
4095 4095 4095
4095 3575 4095
3438 4095 0
3448 4095 0
3458 4095 0
3469 4095 0
3478 4095 0
3489 4095 0
3502 4095 0
3519 4095 0
3543 4095 0
3576 4095 0
3620 4095 0
3680 4095 0
3761 4095 0
3871 4095 0
4021 4095 0
4095 4095 0
4095 4095 0
4095 4095 0
4095 4095 0
4095 4095 0
4095 4095 300
4095 4095 1094
4095 4095 2169
4095 4095 3625
4095 4095 4095
4095 4095 4095
4095 4095 4095
4095 4095 4095
4095 4095 4095
4095 4095 4095
4095 4095 4095
4095 4095 4095
4095 4095 0
4095 4095 0
4095 4095 0
4095 4095 0
4095 4095 0
4095 4095 0
4095 4095 0
4095 4095 0
4095 4095 0
4095 4095 0
4095 4095 0
4095 4095 0
4095 4095 0
4095 4095 0
4095 4095 0
4095 4095 0
4095 4095 0
4095 4095 0
4095 4095 0
4095 4095 0
4095 4095 0
4095 4095 409
4095 4095 1484
4095 4095 2940
4095 4095 4095
4095 4095 4095
4095 4095 4095
4095 4095 4095
4095 4095 4095
4095 4095 4095
4095 4095 4095
4095 4095 4095
4095 4095 0
4095 4095 0
4095 4095 0
4095 4095 0
4095 4095 0
4095 4095 0
4095 4095 0
4095 4095 0
4095 4095 0
4095 4095 0
4095 4095 0
4095 4095 0
4095 4095 0
4095 4095 0
4095 4095 0
4095 4095 0
4095 4095 0
4095 4095 0
4095 4095 0
4095 4095 0
4095 4095 0
4095 4095 0
4095 4095 556
4095 4095 2012
4095 4095 3985
4095 4095 4095
4095 4095 4095
4095 4095 4095
4095 4095 4095
4095 4095 4095
4095 4095 4095
4095 4095 4095
4095 4095 0
4095 4095 0
4095 4095 0
4095 4095 0
4095 4095 0
4095 4095 0
4095 4095 0
4095 4095 0
4095 4095 0
4095 4095 0
4095 4095 0
4095 4095 0
4095 4095 0
4095 4095 0
4095 4095 0
4095 4095 0
4095 4095 0
4095 4095 0
4095 4095 0
4095 4095 0
4095 4095 0
4095 4095 0
4095 4095 0
4095 4095 756
4095 4095 2729
4095 4095 4095
4095 4095 4095
4095 4095 4095
4095 4095 4095
4095 4095 4095
4095 4095 4095
4095 4095 4095
4095 4095 0
4095 4095 0
4095 4095 0
4095 4095 0
4095 4095 0
4095 4095 0
4095 4095 0
4095 4095 0
4095 4095 0
4095 4095 0
4095 4095 0
4095 4095 0
4095 4095 0
4095 4095 0
4095 4095 0
4095 4095 0
4095 4095 0
4095 4095 0
4095 4095 0
4095 4095 0
4095 4095 0
4095 4095 0
4095 4095 0
4095 4095 0
4095 4095 1028
4095 4095 3699
4095 4095 4095
4095 4095 4095
4095 4095 4095
4095 4095 4095
4095 4095 4095
4095 4095 4095
4095 4095 0
4095 4095 0
4095 4095 0
4095 4095 0
