Assets/Samples/High Definition RP/10.5.0/Additional Post-processing Data/trippy.CUBE
#Created by: Adobe Photoshop Export Color Lookup Plugin
TITLE "Frame.psd"
#LUT size
LUT_3D_SIZE 5
#data domain
#LUT data points
DOMAIN_MIN 0.000000 0.000000 0.000000
DOMAIN_MAX 0.903226 0.903226 0.903226
0.000000 0.000000 0.000000
0.036489 0.000000 0.000000
0.362407 0.000000 0.000000
1.000000 0.000000 0.000000
1.000000 0.000000 0.000000
0.000000 0.033959 0.000000
0.054238 0.031680 0.000000
0.430952 0.000000 0.000000
1.000000 0.000000 0.000000
1.000000 0.000000 0.000000
0.013714 0.338740 0.000000
0.081906 0.334873 0.000000
0.498687 0.311355 0.000000
1.000000 0.000000 0.000000
1.000000 0.000000 0.000000
0.128110 1.000000 0.117571
0.197370 1.000000 0.121965
0.614493 1.000000 0.142189
1.000000 1.000000 0.304515
1.000000 0.000000 0.000000
0.000000 1.000000 0.000000
0.000000 1.000000 0.000000
0.000000 1.000000 0.000000
1.000000 1.000000 0.000000
1.000000 1.000000 0.483448
0.000000 0.000000 0.039474
0.033106 0.000000 0.039786
0.359458 0.000000 0.013787
1.000000 0.000000 0.000000
1.000000 0.000000 0.000000
0.000000 0.036291 0.095140
0.014972 0.030267 0.087611
0.393302 0.000000 0.034584
1.000000 0.000000 0.000000
1.000000 0.000000 0.000000
0.000000 0.342654 0.154705
0.019099 0.335169 0.143114
0.435859 0.311637 0.162673
1.000000 0.000000 0.000000
1.000000 0.000000 0.000000
0.065603 1.000000 0.314247
0.134081 1.000000 0.304467
0.550964 1.000000 0.325225
1.000000 1.000000 0.487561
1.000000 0.000000 0.000000
0.000000 1.000000 0.000000
0.000000 1.000000 0.000000
0.000000 1.000000 0.000000
1.000000 1.000000 0.000000
1.000000 1.000000 0.469758
0.000000 0.000000 0.411199
0.000000 0.000000 0.413044
0.334983 0.000000 0.415882
1.000000 0.000000 0.194640
1.000000 0.000000 0.000000
0.000000 0.028913 0.930316
0.000000 0.023100 0.932384
0.146733 0.008085 0.955308
1.000000 0.000000 0.496671
1.000000 0.000000 0.000000
0.000000 0.366759 1.000000
0.000000 0.359311 1.000000
0.050352 0.313613 1.000000
1.000000 0.000000 0.691951
1.000000 0.000000 0.000000
0.000000 1.000000 1.000000
0.000000 1.000000 1.000000
0.170156 1.000000 1.000000
1.000000 1.000000 1.000000
1.000000 0.000000 0.000000
0.000000 1.000000 0.262200
0.000000 1.000000 0.295262
0.000000 1.000000 0.293381
1.000000 1.000000 0.392350
1.000000 1.000000 1.000000
0.000000 0.000000 1.000000
0.000000 0.000000 1.000000
0.000000 0.000000 1.000000
1.000000 0.000000 1.000000
1.000000 0.000000 1.000000
0.000000 0.000000 1.000000
0.000000 0.000000 1.000000
0.000000 0.000000 1.000000
1.000000 0.000000 1.000000
1.000000 0.000000 1.000000
0.000000 0.383223 1.000000
0.000000 0.376068 1.000000
0.000000 0.330577 1.000000
0.308414 0.133023 1.000000
1.000000 0.000000 1.000000
0.000000 1.000000 1.000000
0.000000 1.000000 1.000000
0.000000 1.000000 1.000000
0.475675 1.000000 1.000000
1.000000 0.000000 1.000000
0.000000 1.000000 1.000000
0.000000 1.000000 1.000000
0.000000 1.000000 1.000000
1.000000 1.000000 1.000000
1.000000 1.000000 1.000000
0.000000 0.000000 1.000000
0.000000 0.000000 1.000000
0.000000 0.000000 1.000000
0.000000 0.000000 1.000000
1.000000 0.000000 1.000000
0.000000 0.000000 1.000000
0.000000 0.000000 1.000000
0.000000 0.000000 1.000000
0.000000 0.000000 1.000000
1.000000 0.000000 1.000000
0.000000 0.522273 1.000000
0.000000 0.517230 1.000000
0.000000 0.473505 1.000000
0.000000 0.277076 1.000000
1.000000 0.000000 1.000000
0.000000 1.000000 1.000000
0.000000 1.000000 1.000000
0.000000 1.000000 1.000000
0.000000 1.000000 1.000000
1.000000 1.000000 1.000000
0.000000 1.000000 1.000000
0.000000 1.000000 1.000000
0.000000 1.000000 1.000000
0.000000 1.000000 1.000000
1.000000 1.000000 1.000000
