Assets/Samples/High Definition RP/10.5.0/Additional Post-processing Data/trippy.CUBE
#Created by: Adobe Photoshop Export Color Lookup Plugin
TITLE "Frame.psd"
#LUT size
LUT_3D_SIZE 8
#data domain
#LUT data points
DOMAIN_MIN 0.000000 0.000000 0.000000
DOMAIN_MAX 0.903226 0.903226 0.903226
0.000000 0.000000 0.000000
0.009685 0.000000 0.000000
0.051970 0.000000 0.000000
0.193663 0.000000 0.000000
0.672357 0.000000 0.000000
1.000000 0.000000 0.000000
1.000000 0.000000 0.000000
1.000000 0.000000 0.000000
0.000000 0.008439 0.000000
0.014756 0.007939 0.000000
0.059661 0.004141 0.000000
0.210138 0.000000 0.000000
0.718863 0.000000 0.000000
1.000000 0.000000 0.000000
1.000000 0.000000 0.000000
1.000000 0.000000 0.000000
0.000000 0.048501 0.000000
0.025470 0.047154 0.000000
0.076920 0.044984 0.000000
0.245253 0.027885 0.000000
0.814154 0.000000 0.000000
1.000000 0.000000 0.000000
1.000000 0.000000 0.000000
1.000000 0.000000 0.000000
0.005187 0.180858 0.000000
0.038945 0.178983 0.000000
0.092858 0.175993 0.000000
0.273357 0.166007 0.000000
0.877067 0.099649 0.000000
1.000000 0.000000 0.000000
1.000000 0.000000 0.000000
1.000000 0.000000 0.000000
0.027770 0.629057 0.000000
0.061660 0.627128 0.000000
0.115799 0.624055 0.000000
0.297130 0.613789 0.000000
0.909587 0.579132 0.014692
1.000000 0.352731 0.000000
1.000000 0.000000 0.000000
1.000000 0.000000 0.000000
0.097014 1.000000 0.071868
0.131160 1.000000 0.073744
0.185517 1.000000 0.076530
0.366942 1.000000 0.085191
0.979178 1.000000 0.113849
1.000000 1.000000 0.209881
1.000000 1.000000 0.000000
1.000000 0.000000 0.000000
0.211034 1.000000 0.272934
0.249241 1.000000 0.279867
0.306450 1.000000 0.286726
0.488777 1.000000 0.299454
1.000000 1.000000 0.328666
1.000000 1.000000 0.418494
1.000000 1.000000 0.710518
1.000000 1.000000 0.000000
0.000000 1.000000 0.000000
0.000000 1.000000 0.000000
0.000000 1.000000 0.000000
0.000000 1.000000 0.000000
0.314340 1.000000 0.000000
1.000000 1.000000 0.000000
1.000000 1.000000 0.000000
1.000000 1.000000 0.483448
0.000000 0.000000 0.009326
0.008088 0.000000 0.009424
0.050382 0.000000 0.006072
0.192182 0.000000 0.000000
0.671322 0.000000 0.000000
1.000000 0.000000 0.000000
1.000000 0.000000 0.000000
1.000000 0.000000 0.000000
0.000000 0.008960 0.014903
0.005133 0.006583 0.012020
0.050059 0.002760 0.007319
0.200854 0.000000 0.000000
0.710874 0.000000 0.000000
1.000000 0.000000 0.000000
1.000000 0.000000 0.000000
1.000000 0.000000 0.000000
0.000000 0.049846 0.026175
0.003106 0.046662 0.021624
0.054515 0.044455 0.023624
0.223137 0.027251 0.000000
0.793653 0.000000 0.000000
1.000000 0.000000 0.000000
1.000000 0.000000 0.000000
1.000000 0.000000 0.000000
0.000000 0.182725 0.042099
0.008663 0.179048 0.036459
0.062525 0.176056 0.039017
0.243031 0.166048 0.047356
0.847035 0.099608 0.000000
1.000000 0.000000 0.000000
1.000000 0.000000 0.000000
1.000000 0.000000 0.000000
0.000000 0.631018 0.073454
0.030322 0.627291 0.067607
0.084448 0.624219 0.070171
0.265770 0.613954 0.078658
0.878224 0.579296 0.107243
1.000000 0.352889 0.000000
1.000000 0.000000 0.000000
1.000000 0.000000 0.000000
0.065975 1.000000 0.171006
0.099788 1.000000 0.165538
0.154126 1.000000 0.168421
0.335494 1.000000 0.177133
0.947657 1.000000 0.205857
1.000000 1.000000 0.301894
1.000000 1.000000 0.000000
1.000000 0.000000 0.000000
0.175941 1.000000 0.352638
0.213583 1.000000 0.353523
0.271076 1.000000 0.361277
0.452794 1.000000 0.374096
1.000000 1.000000 0.403936
1.000000 1.000000 0.493047
1.000000 1.000000 0.783446
1.000000 1.000000 0.000000
0.000000 1.000000 0.000000
0.000000 1.000000 0.000000
0.000000 1.000000 0.000000
0.000000 1.000000 0.000000
0.254376 1.000000 0.000000
1.000000 1.000000 0.000000
1.000000 1.000000 0.000000
1.000000 1.000000 0.465898
0.000000 0.000000 0.056977
0.002360 0.000000 0.057170
0.047517 0.000000 0.057436
0.189401 0.000000 0.046192
0.668973 0.000000 0.007777
1.000000 0.000000 0.000000
1.000000 0.000000 0.000000
1.000000 0.000000 0.000000
0.000000 0.006872 0.086341
0.000000 0.004489 0.083888
0.035904 0.003625 0.085108
0.186965 0.000000 0.069315
0.698383 0.000000 0.014161
1.000000 0.000000 0.000000
1.000000 0.000000 0.000000
1.000000 0.000000 0.000000
0.000000 0.052086 0.153451
0.000000 0.048899 0.149704
0.017313 0.043762 0.142925
0.186146 0.026447 0.117950
0.758162 0.000000 0.030660
1.000000 0.000000 0.000000
1.000000 0.000000 0.000000
1.000000 0.000000 0.000000
0.000000 0.185749 0.198456
0.000000 0.182076 0.193097
0.013709 0.176203 0.184205
0.194185 0.166178 0.192802
0.798395 0.099674 0.087943
1.000000 0.000000 0.000000
1.000000 0.000000 0.000000
1.000000 0.000000 0.000000
0.000000 0.634158 0.233178
0.000000 0.630432 0.227383
0.034326 0.624484 0.218039
0.215635 0.614219 0.226562
0.828081 0.579561 0.255175
1.000000 0.353152 0.000000
1.000000 0.000000 0.000000
1.000000 0.000000 0.000000
0.016534 1.000000 0.329339
0.050311 1.000000 0.324089
0.104090 1.000000 0.315181
0.285417 1.000000 0.324048
0.897480 1.000000 0.352891
1.000000 1.000000 0.448963
1.000000 1.000000 0.000000
1.000000 0.000000 0.000000
0.125550 1.000000 0.483463
0.162997 1.000000 0.485305
0.219098 1.000000 0.482761
0.400437 1.000000 0.496295
1.000000 1.000000 0.526570
1.000000 1.000000 0.616038
1.000000 1.000000 0.903084
1.000000 1.000000 0.000000
0.000000 1.000000 0.000000
0.000000 1.000000 0.000000
0.000000 1.000000 0.000000
0.000000 1.000000 0.000000
0.185003 1.000000 0.000000
1.000000 1.000000 0.000000
1.000000 1.000000 0.000000
1.000000 1.000000 0.480463
0.000000 0.000000 0.218040
0.000000 0.000000 0.218638
0.027552 0.000000 0.219283
0.178983 0.000000 0.220330
0.658853 0.000000 0.182103
1.000000 0.000000 0.051701
1.000000 0.000000 0.000000
1.000000 0.000000 0.000000
0.000000 0.000001 0.330436
0.000000 0.000000 0.329615
0.000000 0.000000 0.332356
0.136533 0.000000 0.337094
0.648920 0.000000 0.282805
1.000000 0.000000 0.093341
1.000000 0.000000 0.000000
1.000000 0.000000 0.000000
0.000000 0.050009 0.553603
0.000000 0.046876 0.552276
0.000000 0.041774 0.547699
0.061863 0.034175 0.557137
0.634485 0.000000 0.471662
1.000000 0.000000 0.173348
1.000000 0.000000 0.000000
1.000000 0.000000 0.000000
0.000000 0.195974 0.723356
0.000000 0.192324 0.718908
0.000000 0.186468 0.711021
0.029648 0.166790 0.680970
0.633880 0.100229 0.576612
1.000000 0.000000 0.222223
1.000000 0.000000 0.000000
1.000000 0.000000 0.000000
0.000000 0.644686 0.768446
0.000000 0.640965 0.762822
0.000000 0.635022 0.753627
0.047597 0.615117 0.722200
0.660007 0.580461 0.750902
1.000000 0.354050 0.391225
1.000000 0.000000 0.000000
1.000000 0.000000 0.000000
0.000000 1.000000 0.860082
0.000000 1.000000 0.855470
0.000000 1.000000 0.847012
0.118349 1.000000 0.816582
0.730151 1.000000 0.845759
1.000000 1.000000 0.942122
1.000000 1.000000 0.000000
1.000000 0.000000 0.000000
0.000000 1.000000 0.941680
0.015282 1.000000 0.944775
0.071143 1.000000 0.945940
0.248245 1.000000 0.925647
0.848390 1.000000 0.957703
1.000000 1.000000 1.000000
1.000000 1.000000 1.000000
1.000000 1.000000 0.000000
0.000000 1.000000 0.000000
0.000000 1.000000 0.000000
0.000000 1.000000 0.000000
0.000000 1.000000 0.000000
0.064570 1.000000 0.000000
1.000000 1.000000 0.056822
1.000000 1.000000 0.212873
1.000000 1.000000 0.704173
0.000000 0.000000 0.766948
0.000000 0.000000 0.768649
0.000000 0.000000 0.770697
0.108886 0.000000 0.773155
0.620849 0.000000 0.777043
1.000000 0.000000 0.647061
1.000000 0.000000 0.204345
1.000000 0.000000 0.000000
0.000000 0.000000 1.000000
0.000000 0.000000 1.000000
0.000000 0.000000 1.000000
0.000000 0.000000 1.000000
0.469415 0.000000 1.000000
1.000000 0.000000 1.000000
1.000000 0.000000 0.372332
1.000000 0.000000 0.000000
0.000000 0.043544 1.000000
0.000000 0.040644 1.000000
0.000000 0.035761 1.000000
0.000000 0.028258 1.000000
0.203650 0.001950 1.000000
1.000000 0.000000 1.000000
1.000000 0.000000 0.668720
1.000000 0.000000 0.000000
0.000000 0.198052 1.000000
0.000000 0.194487 1.000000
0.000000 0.188701 1.000000
0.000000 0.169076 1.000000
0.081485 0.135112 1.000000
1.000000 0.000000 1.000000
1.000000 0.000000 0.814855
1.000000 0.000000 0.000000
0.000000 0.680259 1.000000
0.000000 0.676553 1.000000
0.000000 0.670623 1.000000
0.000000 0.650730 1.000000
0.092232 0.583511 1.000000
1.000000 0.357106 1.000000
1.000000 0.000000 0.855106
1.000000 0.000000 0.000000
0.000000 1.000000 1.000000
0.000000 1.000000 1.000000
0.000000 1.000000 1.000000
0.000000 1.000000 1.000000
0.166340 1.000000 1.000000
1.000000 1.000000 1.000000
1.000000 1.000000 1.000000
1.000000 0.000000 0.000000
0.000000 1.000000 1.000000
0.000000 1.000000 1.000000
0.000000 1.000000 1.000000
0.000000 1.000000 1.000000
0.357481 1.000000 1.000000
1.000000 1.000000 1.000000
1.000000 1.000000 1.000000
1.000000 1.000000 0.000000
0.000000 1.000000 0.884501
0.000000 1.000000 0.906310
0.000000 1.000000 0.928877
0.000000 1.000000 0.939659
0.000000 1.000000 0.896848
1.000000 1.000000 0.959016
1.000000 1.000000 1.000000
1.000000 1.000000 1.000000
0.000000 0.000000 1.000000
0.000000 0.000000 1.000000
0.000000 0.000000 1.000000
0.000000 0.000000 1.000000
0.375291 0.000000 1.000000
1.000000 0.000000 1.000000
1.000000 0.000000 1.000000
1.000000 0.000000 0.729567
0.000000 0.000000 1.000000
0.000000 0.000000 1.000000
0.000000 0.000000 1.000000
0.000000 0.000000 1.000000
0.000000 0.000000 1.000000
1.000000 0.000000 1.000000
1.000000 0.000000 1.000000
1.000000 0.000000 1.000000
0.000000 0.023256 1.000000
0.000000 0.021172 1.000000
0.000000 0.017171 1.000000
0.000000 0.010388 1.000000
0.000000 0.000000 1.000000
0.654595 0.000000 1.000000
1.000000 0.000000 1.000000
1.000000 0.000000 1.000000
0.000000 0.205397 1.000000
0.000000 0.202122 1.000000
0.000000 0.196574 1.000000
0.000000 0.177154 1.000000
0.000000 0.143345 1.000000
0.250859 0.028554 1.000000
1.000000 0.000000 1.000000
1.000000 0.000000 1.000000
0.000000 0.690368 1.000000
0.000000 0.686721 1.000000
0.000000 0.680835 1.000000
0.000000 0.660977 1.000000
0.000000 0.593790 1.000000
0.242208 0.477094 1.000000
1.000000 0.000000 1.000000
1.000000 0.000000 1.000000
0.000000 1.000000 1.000000
0.000000 1.000000 1.000000
0.000000 1.000000 1.000000
0.000000 1.000000 1.000000
0.000000 1.000000 1.000000
0.327993 1.000000 1.000000
1.000000 1.000000 1.000000
1.000000 0.000000 1.000000
0.000000 1.000000 1.000000
0.000000 1.000000 1.000000
0.000000 1.000000 1.000000
0.000000 1.000000 1.000000
0.000000 1.000000 1.000000
0.742973 1.000000 1.000000
1.000000 1.000000 1.000000
1.000000 1.000000 1.000000
0.000000 1.000000 1.000000
0.000000 1.000000 1.000000
0.000000 1.000000 1.000000
0.000000 1.000000 1.000000
0.000000 1.000000 1.000000
0.776251 1.000000 1.000000
1.000000 1.000000 1.000000
1.000000 1.000000 1.000000
0.000000 0.000000 1.000000
0.000000 0.000000 1.000000
0.000000 0.000000 1.000000
0.000000 0.000000 1.000000
0.000000 0.000000 1.000000
1.000000 0.000000 1.000000
1.000000 0.000000 1.000000
1.000000 0.000000 1.000000
0.000000 0.000000 1.000000
0.000000 0.000000 1.000000
0.000000 0.000000 1.000000
0.000000 0.000000 1.000000
0.000000 0.000000 1.000000
0.000000 0.000000 1.000000
1.000000 0.000000 1.000000
1.000000 0.000000 1.000000
0.000000 0.000000 1.000000
0.000000 0.000000 1.000000
0.000000 0.000000 1.000000
0.000000 0.000000 1.000000
0.000000 0.000000 1.000000
0.000000 0.000000 1.000000
1.000000 0.000000 1.000000
1.000000 0.000000 1.000000
0.000000 0.231025 1.000000
0.000000 0.228658 1.000000
0.000000 0.223919 1.000000
0.000000 0.205176 1.000000
0.000000 0.172001 1.000000
0.000000 0.057596 1.000000
0.807968 0.000000 1.000000
1.000000 0.000000 1.000000
0.000000 0.724409 1.000000
0.000000 0.720946 1.000000
0.000000 0.715216 1.000000
0.000000 0.695490 1.000000
0.000000 0.628403 1.000000
0.000000 0.511785 1.000000
0.746184 0.118955 1.000000
1.000000 0.000000 1.000000
0.000000 1.000000 1.000000
0.000000 1.000000 1.000000
0.000000 1.000000 1.000000
0.000000 1.000000 1.000000
0.000000 1.000000 1.000000
0.000000 1.000000 1.000000
0.871861 1.000000 1.000000
1.000000 0.000000 1.000000
0.000000 1.000000 1.000000
0.000000 1.000000 1.000000
0.000000 1.000000 1.000000
0.000000 1.000000 1.000000
0.000000 1.000000 1.000000
0.000000 1.000000 1.000000
1.000000 1.000000 1.000000
1.000000 1.000000 1.000000
0.000000 1.000000 1.000000
0.000000 1.000000 1.000000
0.000000 1.000000 1.000000
0.000000 1.000000 1.000000
0.000000 1.000000 1.000000
0.000000 1.000000 1.000000
1.000000 1.000000 1.000000
1.000000 1.000000 1.000000
0.000000 0.000000 1.000000
0.000000 0.000000 1.000000
0.000000 0.000000 1.000000
0.000000 0.000000 1.000000
0.000000 0.000000 1.000000
0.000000 0.000000 1.000000
1.000000 0.000000 1.000000
1.000000 0.000000 1.000000
0.000000 0.000000 1.000000
0.000000 0.000000 1.000000
0.000000 0.000000 1.000000
0.000000 0.000000 1.000000
0.000000 0.000000 1.000000
0.000000 0.000000 1.000000
0.000000 0.000000 1.000000
1.000000 0.000000 1.000000
0.000000 0.000000 1.000000
0.000000 0.000000 1.000000
0.000000 0.000000 1.000000
0.000000 0.000000 1.000000
0.000000 0.000000 1.000000
0.000000 0.000000 1.000000
0.000000 0.000000 1.000000
1.000000 0.000000 1.000000
0.000000 0.320208 1.000000
0.000000 0.320251 1.000000
0.000000 0.318579 1.000000
0.000000 0.301981 1.000000
0.000000 0.270692 1.000000
0.000000 0.158151 1.000000
0.000000 0.000000 1.000000
1.000000 0.000000 1.000000
0.000000 0.838930 1.000000
0.000000 0.836053 1.000000
0.000000 0.830838 1.000000
0.000000 0.811541 1.000000
0.000000 0.744783 1.000000
0.000000 0.628462 1.000000
0.000000 0.235842 1.000000
1.000000 0.000000 1.000000
0.000000 1.000000 1.000000
0.000000 1.000000 1.000000
0.000000 1.000000 1.000000
0.000000 1.000000 1.000000
0.000000 1.000000 1.000000
0.000000 1.000000 1.000000
0.000000 1.000000 1.000000
1.000000 0.424819 1.000000
0.000000 1.000000 1.000000
0.000000 1.000000 1.000000
0.000000 1.000000 1.000000
0.000000 1.000000 1.000000
0.000000 1.000000 1.000000
0.000000 1.000000 1.000000
0.000000 1.000000 1.000000
1.000000 1.000000 1.000000
0.000000 1.000000 1.000000
0.000000 1.000000 1.000000
0.000000 1.000000 1.000000
0.000000 1.000000 1.000000
0.000000 1.000000 1.000000
0.000000 1.000000 1.000000
0.000000 1.000000 1.000000
1.000000 1.000000 1.000000
