Assets/Samples/High Definition RP/10.5.0/Additional Post-processing Data/trippy.CUBE
#Created by: Adobe Photoshop Export Color Lookup Plugin
TITLE "Frame.psd"
#LUT size
LUT_3D_SIZE 32
#data domain
DOMAIN_MIN 0.0 0.0 0.0
DOMAIN_MAX 1.0 1.0 1.0
#LUT data points
0.000000 0.000000 0.000000
0.000000 0.000000 0.000000
0.000000 0.000000 0.000000
0.003467 0.000000 0.000000
0.009685 0.000000 0.000000
0.016951 0.000000 0.000000
0.025452 0.000000 0.000000
0.036489 0.000000 0.000000
0.051970 0.000000 0.000000
0.073255 0.000000 0.000000
0.102183 0.000000 0.000000
0.140881 0.000000 0.000000
0.193663 0.000000 0.000000
0.265269 0.000000 0.000000
0.362407 0.000000 0.000000
0.494190 0.000000 0.000000
0.672357 0.000000 0.000000
0.913640 0.000000 0.000000
1.000000 0.000000 0.000000
1.000000 0.000000 0.000000
1.000000 0.000000 0.000000
1.000000 0.000000 0.000000
1.000000 0.000000 0.000000
1.000000 0.000000 0.000000
1.000000 0.000000 0.000000
1.000000 0.000000 0.000000
1.000000 0.000000 0.000000
1.000000 0.000000 0.000000
1.000000 0.000000 0.000000
1.000000 0.000000 0.000000
1.000000 0.000000 0.000000
1.000000 0.000000 0.000000
0.000000 0.000000 0.000000
0.000000 0.000000 0.000000
0.000000 0.000000 0.000000
0.004118 0.000000 0.000000
0.010389 0.000000 0.000000
0.017711 0.000000 0.000000
0.026286 0.000000 0.000000
0.037425 0.000000 0.000000
0.053043 0.000000 0.000000
0.074521 0.000000 0.000000
0.103703 0.000000 0.000000
0.142739 0.000000 0.000000
0.195997 0.000000 0.000000
0.268226 0.000000 0.000000
0.366225 0.000000 0.000000
0.499208 0.000000 0.000000
0.679022 0.000000 0.000000
0.922547 0.000000 0.000000
1.000000 0.000000 0.000000
1.000000 0.000000 0.000000
1.000000 0.000000 0.000000
1.000000 0.000000 0.000000
1.000000 0.000000 0.000000
1.000000 0.000000 0.000000
1.000000 0.000000 0.000000
1.000000 0.000000 0.000000
1.000000 0.000000 0.000000
1.000000 0.000000 0.000000
1.000000 0.000000 0.000000
1.000000 0.000000 0.000000
1.000000 0.000000 0.000000
1.000000 0.000000 0.000000
0.000000 0.000000 0.000000
0.000000 0.000000 0.000000
0.000000 0.000000 0.000000
0.005052 0.000000 0.000000
0.011412 0.000000 0.000000
0.018837 0.000000 0.000000
0.027519 0.000000 0.000000
0.038794 0.000000 0.000000
0.054605 0.000000 0.000000
0.076342 0.000000 0.000000
0.105897 0.000000 0.000000
0.145439 0.000000 0.000000
0.199359 0.000000 0.000000
0.272522 0.000000 0.000000
0.371792 0.000000 0.000000
0.506444 0.000000 0.000000
0.688505 0.000000 0.000000
0.935211 0.000000 0.000000
1.000000 0.000000 0.000000
1.000000 0.000000 0.000000
1.000000 0.000000 0.000000
1.000000 0.000000 0.000000
1.000000 0.000000 0.000000
1.000000 0.000000 0.000000
1.000000 0.000000 0.000000
1.000000 0.000000 0.000000
1.000000 0.000000 0.000000
1.000000 0.000000 0.000000
1.000000 0.000000 0.000000
1.000000 0.000000 0.000000
1.000000 0.000000 0.000000
1.000000 0.000000 0.000000
0.000000 0.002404 0.000000
0.000000 0.002311 0.000000
0.000000 0.002230 0.000000
0.006388 0.002137 0.000000
0.012854 0.001613 0.000000
0.020399 0.001001 0.000000
0.029227 0.000285 0.000000
0.040701 0.000000 0.000000
0.056790 0.000000 0.000000
0.078907 0.000000 0.000000
0.108975 0.000000 0.000000
0.149200 0.000000 0.000000
0.204039 0.000000 0.000000
0.278437 0.000000 0.000000
0.379419 0.000000 0.000000
0.516435 0.000000 0.000000
0.701725 0.000000 0.000000
0.952596 0.000000 0.000000
1.000000 0.000000 0.000000
1.000000 0.000000 0.000000
1.000000 0.000000 0.000000
1.000000 0.000000 0.000000
1.000000 0.000000 0.000000
1.000000 0.000000 0.000000
1.000000 0.000000 0.000000
1.000000 0.000000 0.000000
1.000000 0.000000 0.000000
1.000000 0.000000 0.000000
1.000000 0.000000 0.000000
1.000000 0.000000 0.000000
1.000000 0.000000 0.000000
1.000000 0.000000 0.000000
0.000000 0.008439 0.000000
0.000000 0.008307 0.000000
0.000000 0.008191 0.000000
0.007803 0.008058 0.000000
0.014756 0.007939 0.000000
0.022476 0.007287 0.000000
0.031498 0.006525 0.000000
0.043224 0.005533 0.000000
0.059661 0.004141 0.000000
0.082247 0.002230 0.000000
0.112988 0.000000 0.000000
0.154094 0.000000 0.000000
0.210138 0.000000 0.000000
0.286151 0.000000 0.000000
0.389296 0.000000 0.000000
0.529400 0.000000 0.000000
0.718863 0.000000 0.000000
0.975264 0.000000 0.000000
1.000000 0.000000 0.000000
1.000000 0.000000 0.000000
1.000000 0.000000 0.000000
1.000000 0.000000 0.000000
1.000000 0.000000 0.000000
1.000000 0.000000 0.000000
1.000000 0.000000 0.000000
1.000000 0.000000 0.000000
1.000000 0.000000 0.000000
1.000000 0.000000 0.000000
1.000000 0.000000 0.000000
1.000000 0.000000 0.000000
1.000000 0.000000 0.000000
1.000000 0.000000 0.000000
0.000000 0.015430 0.000000
0.000000 0.015248 0.000000
0.001721 0.015090 0.000000
0.009720 0.014907 0.000000
0.016824 0.014743 0.000000
0.025096 0.014553 0.000000
0.034353 0.013734 0.000000
0.046388 0.012667 0.000000
0.063258 0.011171 0.000000
0.086478 0.009109 0.000000
0.118036 0.006304 0.000000
0.160205 0.002559 0.000000
0.217727 0.000000 0.000000
0.295794 0.000000 0.000000
0.401747 0.000000 0.000000
0.545519 0.000000 0.000000
0.739844 0.000000 0.000000
1.000000 0.000000 0.000000
1.000000 0.000000 0.000000
1.000000 0.000000 0.000000
1.000000 0.000000 0.000000
1.000000 0.000000 0.000000
1.000000 0.000000 0.000000
1.000000 0.000000 0.000000
1.000000 0.000000 0.000000
1.000000 0.000000 0.000000
1.000000 0.000000 0.000000
1.000000 0.000000 0.000000
1.000000 0.000000 0.000000
1.000000 0.000000 0.000000
1.000000 0.000000 0.000000
1.000000 0.000000 0.000000
0.000000 0.023529 0.000000
0.000000 0.023292 0.000000
0.003943 0.023083 0.000000
0.012120 0.022843 0.000000
0.019352 0.022632 0.000000
0.027802 0.022385 0.000000
0.037726 0.022089 0.000000
0.050148 0.020932 0.000000
0.067534 0.019312 0.000000
0.091389 0.017092 0.000000
0.123816 0.014073 0.000000
0.167270 0.010018 0.000000
0.226541 0.004484 0.000000
0.306854 0.000000 0.000000
0.415844 0.000000 0.000000
0.563824 0.000000 0.000000
0.763939 0.000000 0.000000
1.000000 0.000000 0.000000
1.000000 0.000000 0.000000
1.000000 0.000000 0.000000
1.000000 0.000000 0.000000
1.000000 0.000000 0.000000
1.000000 0.000000 0.000000
1.000000 0.000000 0.000000
1.000000 0.000000 0.000000
1.000000 0.000000 0.000000
1.000000 0.000000 0.000000
1.000000 0.000000 0.000000
1.000000 0.000000 0.000000
1.000000 0.000000 0.000000
1.000000 0.000000 0.000000
1.000000 0.000000 0.000000
0.000000 0.033959 0.000000
0.000000 0.033659 0.000000
0.006553 0.033396 0.000000
0.014889 0.033099 0.000000
0.022284 0.032835 0.000000
0.030957 0.032521 0.000000
0.041107 0.032153 0.000000
0.054238 0.031680 0.000000
0.072115 0.029939 0.000000
0.096717 0.027540 0.000000
0.130161 0.024276 0.000000
0.174905 0.019906 0.000000
0.235851 0.013961 0.000000
0.318592 0.005880 0.000000
0.430952 0.000000 0.000000
0.583344 0.000000 0.000000
0.789425 0.000000 0.000000
1.000000 0.000000 0.000000
1.000000 0.000000 0.000000
1.000000 0.000000 0.000000
1.000000 0.000000 0.000000
1.000000 0.000000 0.000000
1.000000 0.000000 0.000000
1.000000 0.000000 0.000000
1.000000 0.000000 0.000000
1.000000 0.000000 0.000000
1.000000 0.000000 0.000000
1.000000 0.000000 0.000000
1.000000 0.000000 0.000000
1.000000 0.000000 0.000000
1.000000 0.000000 0.000000
1.000000 0.000000 0.000000
0.000000 0.048501 0.000000
0.001865 0.048144 0.000000
0.009376 0.047828 0.000000
0.017916 0.047470 0.000000
0.025470 0.047154 0.000000
0.034312 0.046782 0.000000
0.044691 0.046341 0.000000
0.058118 0.045774 0.000000
0.076920 0.044984 0.000000
0.102200 0.042418 0.000000
0.136588 0.038924 0.000000
0.182565 0.034253 0.000000
0.245253 0.027885 0.000000
0.330289 0.019244 0.000000
0.445747 0.007499 0.000000
0.602360 0.000000 0.000000
0.814154 0.000000 0.000000
1.000000 0.000000 0.000000
1.000000 0.000000 0.000000
1.000000 0.000000 0.000000
1.000000 0.000000 0.000000
1.000000 0.000000 0.000000
1.000000 0.000000 0.000000
1.000000 0.000000 0.000000
1.000000 0.000000 0.000000
1.000000 0.000000 0.000000
1.000000 0.000000 0.000000
1.000000 0.000000 0.000000
1.000000 0.000000 0.000000
1.000000 0.000000 0.000000
1.000000 0.000000 0.000000
1.000000 0.000000 0.000000
0.000000 0.068410 0.000000
0.004753 0.068001 0.000000
0.012371 0.067644 0.000000
0.021079 0.067232 0.000000
0.028785 0.066869 0.000000
0.037769 0.066447 0.000000
0.048331 0.065944 0.000000
0.062038 0.065291 0.000000
0.081196 0.064386 0.000000
0.107555 0.063136 0.000000
0.142751 0.059443 0.000000
0.189776 0.054514 0.000000
0.253921 0.047790 0.000000
0.340988 0.038655 0.000000
0.459082 0.026267 0.000000
0.619410 0.009432 0.000000
0.836220 0.000000 0.000000
1.000000 0.000000 0.000000
1.000000 0.000000 0.000000
1.000000 0.000000 0.000000
1.000000 0.000000 0.000000
1.000000 0.000000 0.000000
1.000000 0.000000 0.000000
1.000000 0.000000 0.000000
1.000000 0.000000 0.000000
1.000000 0.000000 0.000000
1.000000 0.000000 0.000000
1.000000 0.000000 0.000000
1.000000 0.000000 0.000000
1.000000 0.000000 0.000000
1.000000 0.000000 0.000000
1.000000 0.000000 0.000000
0.000000 0.095423 0.000000
0.007748 0.094969 0.000000
0.015486 0.094574 0.000000
0.024286 0.094126 0.000000
0.032108 0.093725 0.000000
0.041243 0.093256 0.000000
0.051933 0.092708 0.000000
0.065818 0.091993 0.000000
0.085255 0.090998 0.000000
0.111977 0.089630 0.000000
0.148289 0.087769 0.000000
0.196142 0.082638 0.000000
0.261447 0.075631 0.000000
0.350041 0.066121 0.000000
0.470305 0.053204 0.000000
0.633431 0.035686 0.000000
0.853947 0.012008 0.000000
1.000000 0.000000 0.000000
1.000000 0.000000 0.000000
1.000000 0.000000 0.000000
1.000000 0.000000 0.000000
1.000000 0.000000 0.000000
1.000000 0.000000 0.000000
1.000000 0.000000 0.000000
1.000000 0.000000 0.000000
1.000000 0.000000 0.000000
1.000000 0.000000 0.000000
1.000000 0.000000 0.000000
1.000000 0.000000 0.000000
1.000000 0.000000 0.000000
1.000000 0.000000 0.000000
1.000000 0.000000 0.000000
0.001881 0.131544 0.000000
0.010857 0.131061 0.000000
0.018672 0.130639 0.000000
0.027553 0.130163 0.000000
0.035445 0.129738 0.000000
0.044672 0.129238 0.000000
0.055467 0.128654 0.000000
0.069474 0.127898 0.000000
0.089090 0.126843 0.000000
0.116041 0.125396 0.000000
0.152699 0.123423 0.000000
0.201733 0.120782 0.000000
0.267820 0.113584 0.000000
0.357491 0.103811 0.000000
0.479135 0.090556 0.000000
0.644138 0.072581 0.000000
0.867290 0.048261 0.000000
1.000000 0.015298 0.000000
1.000000 0.000000 0.000000
1.000000 0.000000 0.000000
1.000000 0.000000 0.000000
1.000000 0.000000 0.000000
1.000000 0.000000 0.000000
1.000000 0.000000 0.000000
1.000000 0.000000 0.000000
1.000000 0.000000 0.000000
1.000000 0.000000 0.000000
1.000000 0.000000 0.000000
1.000000 0.000000 0.000000
1.000000 0.000000 0.000000
1.000000 0.000000 0.000000
1.000000 0.000000 0.000000
0.005187 0.180858 0.000000
0.014208 0.180358 0.000000
0.022061 0.179922 0.000000
0.031006 0.179425 0.000000
0.038945 0.178983 0.000000
0.048216 0.178467 0.000000
0.059062 0.177864 0.000000
0.073138 0.177083 0.000000
0.092858 0.175993 0.000000
0.119978 0.174492 0.000000
0.156841 0.172450 0.000000
0.206125 0.169726 0.000000
0.273357 0.166007 0.000000
0.363665 0.156078 0.000000
0.486156 0.142617 0.000000
0.652366 0.124346 0.000000
0.877067 0.099649 0.000000
1.000000 0.066199 0.000000
1.000000 0.020811 0.000000
1.000000 0.000000 0.000000
1.000000 0.000000 0.000000
1.000000 0.000000 0.000000
1.000000 0.000000 0.000000
1.000000 0.000000 0.000000
1.000000 0.000000 0.000000
1.000000 0.000000 0.000000
1.000000 0.000000 0.000000
1.000000 0.000000 0.000000
1.000000 0.000000 0.000000
1.000000 0.000000 0.000000
1.000000 0.000000 0.000000
1.000000 0.000000 0.000000
0.009008 0.247818 0.000000
0.018052 0.247310 0.000000
0.025929 0.246865 0.000000
0.034899 0.246359 0.000000
0.042858 0.245909 0.000000
0.052154 0.245384 0.000000
0.063025 0.244772 0.000000
0.077135 0.243978 0.000000
0.096920 0.242866 0.000000
0.124123 0.241337 0.000000
0.161083 0.239263 0.000000
0.210514 0.236490 0.000000
0.277931 0.232709 0.000000
0.369372 0.227581 0.000000
0.492312 0.214011 0.000000
0.659104 0.195599 0.000000
0.884609 0.170705 0.000000
1.000000 0.136991 0.000000
1.000000 0.091263 0.000000
1.000000 0.029311 0.000000
1.000000 0.000000 0.000000
1.000000 0.000000 0.000000
1.000000 0.000000 0.000000
1.000000 0.000000 0.000000
1.000000 0.000000 0.000000
1.000000 0.000000 0.000000
1.000000 0.000000 0.000000
1.000000 0.000000 0.000000
1.000000 0.000000 0.000000
1.000000 0.000000 0.000000
1.000000 0.000000 0.000000
1.000000 0.000000 0.000000
0.013714 0.338740 0.000000
0.022767 0.338227 0.000000
0.030652 0.337779 0.000000
0.039632 0.337269 0.000000
0.047592 0.336818 0.000000
0.056896 0.336289 0.000000
0.067782 0.335671 0.000000
0.081906 0.334873 0.000000
0.101707 0.333755 0.000000
0.128930 0.332218 0.000000
0.165933 0.330128 0.000000
0.215430 0.327334 0.000000
0.282928 0.323527 0.000000
0.374478 0.318363 0.000000
0.498687 0.311355 0.000000
0.665747 0.292878 0.000000
0.891602 0.267899 0.000000
1.000000 0.234075 0.000000
1.000000 0.188200 0.000000
1.000000 0.126048 0.000000
1.000000 0.041857 0.000000
1.000000 0.000000 0.000000
1.000000 0.000000 0.000000
1.000000 0.000000 0.000000
1.000000 0.000000 0.000000
1.000000 0.000000 0.000000
1.000000 0.000000 0.000000
1.000000 0.000000 0.000000
1.000000 0.000000 0.000000
1.000000 0.000000 0.000000
1.000000 0.000000 0.000000
1.000000 0.000000 0.000000
0.019771 0.462156 0.000000
0.028832 0.461641 0.000000
0.036714 0.461193 0.000000
0.045692 0.460683 0.000000
0.053657 0.460229 0.000000
0.062959 0.459701 0.000000
0.073846 0.459083 0.000000
0.087979 0.458281 0.000000
0.107789 0.457159 0.000000
0.135028 0.455617 0.000000
0.172044 0.453523 0.000000
0.221560 0.450722 0.000000
0.289094 0.446903 0.000000
0.380691 0.441724 0.000000
0.504958 0.434697 0.000000
0.673543 0.425164 0.000000
0.899532 0.400153 0.000000
1.000000 0.366284 0.000000
1.000000 0.320353 0.000000
1.000000 0.258125 0.000000
1.000000 0.173841 0.000000
1.000000 0.059683 0.000000
1.000000 0.000000 0.000000
1.000000 0.000000 0.000000
1.000000 0.000000 0.000000
1.000000 0.000000 0.000000
1.000000 0.000000 0.000000
1.000000 0.000000 0.000000
1.000000 0.000000 0.000000
1.000000 0.000000 0.000000
1.000000 0.000000 0.000000
1.000000 0.000000 0.000000
0.027770 0.629057 0.000000
0.036831 0.628541 0.000000
0.044716 0.628092 0.000000
0.053695 0.627581 0.000000
0.061660 0.627128 0.000000
0.070965 0.626599 0.000000
0.081851 0.625980 0.000000
0.095984 0.625178 0.000000
0.115799 0.624055 0.000000
0.143040 0.622512 0.000000
0.180063 0.620416 0.000000
0.229586 0.617612 0.000000
0.297130 0.613789 0.000000
0.388742 0.608605 0.000000
0.513028 0.601572 0.000000
0.681637 0.592031 0.004061
0.909587 0.579132 0.014692
1.000000 0.545250 0.000000
1.000000 0.499297 0.000000
1.000000 0.437046 0.000000
1.000000 0.352731 0.000000
1.000000 0.238527 0.000000
1.000000 0.083935 0.000000
1.000000 0.000000 0.000000
1.000000 0.000000 0.000000
1.000000 0.000000 0.000000
1.000000 0.000000 0.000000
1.000000 0.000000 0.000000
1.000000 0.000000 0.000000
1.000000 0.000000 0.000000
1.000000 0.000000 0.000000
1.000000 0.000000 0.000000
0.038480 0.855106 0.000000
0.047543 0.854590 0.000000
0.055429 0.854140 0.000000
0.064410 0.853628 0.000000
0.072377 0.853174 0.000000
0.081683 0.852644 0.000000
0.092571 0.852025 0.000000
0.106706 0.851222 0.000000
0.126525 0.850097 0.000000
0.153769 0.848553 0.000000
0.190794 0.846456 0.000000
0.240320 0.843651 0.000000
0.307867 0.839827 0.001174
0.399483 0.834641 0.005450
0.523775 0.827606 0.011250
0.692390 0.818063 0.019117
0.920348 0.805162 0.029751
1.000000 0.787690 0.044153
1.000000 0.741733 0.000000
1.000000 0.679476 0.000000
1.000000 0.595154 0.000000
1.000000 0.480940 0.000000
1.000000 0.326338 0.000000
1.000000 0.116857 0.000000
1.000000 0.000000 0.000000
1.000000 0.000000 0.000000
1.000000 0.000000 0.000000
1.000000 0.000000 0.000000
1.000000 0.000000 0.000000
1.000000 0.000000 0.000000
1.000000 0.000000 0.000000
1.000000 0.000000 0.000000
0.052860 1.000000 0.008820
0.061934 1.000000 0.009259
0.069827 1.000000 0.009641
0.078815 1.000000 0.010073
0.086788 1.000000 0.010458
0.096100 1.000000 0.010904
0.106994 1.000000 0.011423
0.121131 1.000000 0.012092
0.140952 1.000000 0.013026
0.168200 1.000000 0.014307
0.205228 1.000000 0.016042
0.254757 1.000000 0.018361
0.322306 1.000000 0.021518
0.413923 1.000000 0.025798
0.538214 1.000000 0.031601
0.706829 1.000000 0.039472
0.934783 1.000000 0.050107
1.000000 1.000000 0.064508
1.000000 1.000000 0.084036
1.000000 1.000000 0.000000
1.000000 0.924036 0.000000
1.000000 0.809832 0.000000
1.000000 0.655241 0.000000
1.000000 0.445776 0.000000
1.000000 0.162001 0.000000
1.000000 0.000000 0.000000
1.000000 0.000000 0.000000
1.000000 0.000000 0.000000
1.000000 0.000000 0.000000
1.000000 0.000000 0.000000
1.000000 0.000000 0.000000
1.000000 0.000000 0.000000
0.072029 1.000000 0.036009
0.081112 1.000000 0.036460
0.089018 1.000000 0.036856
0.098025 1.000000 0.037307
0.106016 1.000000 0.037710
0.115340 1.000000 0.038170
0.126245 1.000000 0.038702
0.140400 1.000000 0.039389
0.160236 1.000000 0.040339
0.187490 1.000000 0.041630
0.224523 1.000000 0.043376
0.274058 1.000000 0.045707
0.341611 1.000000 0.048876
0.433227 1.000000 0.053166
0.557504 1.000000 0.058972
0.726096 1.000000 0.066843
0.954026 1.000000 0.077482
1.000000 1.000000 0.091877
1.000000 1.000000 0.111395
1.000000 1.000000 0.137837
1.000000 1.000000 0.003969
1.000000 1.000000 0.000000
1.000000 1.000000 0.000000
1.000000 0.891647 0.000000
1.000000 0.607966 0.000000
1.000000 0.223858 0.000000
1.000000 0.000000 0.000000
1.000000 0.000000 0.000000
1.000000 0.000000 0.000000
1.000000 0.000000 0.000000
1.000000 0.000000 0.000000
1.000000 0.000000 0.000000
0.097014 1.000000 0.071868
0.106124 1.000000 0.072352
0.114091 1.000000 0.072811
0.123149 1.000000 0.073317
0.131160 1.000000 0.073744
0.140541 1.000000 0.074262
0.151500 1.000000 0.074849
0.165670 1.000000 0.075558
0.185517 1.000000 0.076530
0.212783 1.000000 0.077846
0.249850 1.000000 0.079639
0.299407 1.000000 0.082009
0.366942 1.000000 0.085191
0.458540 1.000000 0.089500
0.582804 1.000000 0.095337
0.751348 1.000000 0.103221
0.979178 1.000000 0.113849
1.000000 1.000000 0.128226
1.000000 1.000000 0.147712
1.000000 1.000000 0.174124
1.000000 1.000000 0.209881
1.000000 1.000000 0.028913
1.000000 1.000000 0.000000
1.000000 1.000000 0.000000
1.000000 1.000000 0.000000
1.000000 0.829306 0.000000
1.000000 0.309772 0.000000
1.000000 0.000000 0.000000
1.000000 0.000000 0.000000
1.000000 0.000000 0.000000
1.000000 0.000000 0.000000
1.000000 0.000000 0.000000
0.128110 1.000000 0.117571
0.137305 1.000000 0.118154
0.145325 1.000000 0.118681
0.154437 1.000000 0.119256
0.162573 1.000000 0.119819
0.172080 1.000000 0.120475
0.183125 1.000000 0.121165
0.197370 1.000000 0.121965
0.217275 1.000000 0.123020
0.244628 1.000000 0.124450
0.281739 1.000000 0.126328
0.331282 1.000000 0.128743
0.398806 1.000000 0.131986
0.490346 1.000000 0.136335
0.614493 1.000000 0.142189
0.782873 1.000000 0.150082
1.000000 1.000000 0.160709
1.000000 1.000000 0.175061
1.000000 1.000000 0.194485
1.000000 1.000000 0.220793
1.000000 1.000000 0.256384
1.000000 1.000000 0.304515
1.000000 1.000000 0.060823
1.000000 1.000000 0.000000
1.000000 1.000000 0.000000
1.000000 1.000000 0.000000
1.000000 1.000000 0.000000
1.000000 0.433351 0.000000
1.000000 0.000000 0.000000
1.000000 0.000000 0.000000
1.000000 0.000000 0.000000
1.000000 0.000000 0.000000
0.163411 1.000000 0.172065
0.172792 1.000000 0.172873
0.181002 1.000000 0.173620
0.190299 1.000000 0.174417
0.198500 1.000000 0.175075
0.208119 1.000000 0.175883
0.219392 1.000000 0.176839
0.233795 1.000000 0.177845
0.253763 1.000000 0.179020
0.281114 1.000000 0.180526
0.318359 1.000000 0.182639
0.367951 1.000000 0.185229
0.435384 1.000000 0.188549
0.526842 1.000000 0.193033
0.650713 1.000000 0.198907
0.818780 1.000000 0.206873
1.000000 1.000000 0.217530
1.000000 1.000000 0.231757
1.000000 1.000000 0.251053
1.000000 1.000000 0.277096
1.000000 1.000000 0.312272
1.000000 1.000000 0.359728
1.000000 1.000000 0.423902
1.000000 1.000000 0.097592
1.000000 1.000000 0.000000
1.000000 1.000000 0.000000
1.000000 1.000000 0.000000
1.000000 1.000000 0.000000
1.000000 0.621091 0.000000
1.000000 0.000000 0.000000
1.000000 0.000000 0.000000
1.000000 0.000000 0.000000
0.195733 1.000000 0.228660
0.205492 1.000000 0.229926
0.214089 1.000000 0.231138
0.223571 1.000000 0.232188
0.232042 1.000000 0.233184
0.242028 1.000000 0.234435
0.253571 1.000000 0.235747
0.268139 1.000000 0.237009
0.288303 1.000000 0.238497
0.315806 1.000000 0.240307
0.353165 1.000000 0.242732
0.402876 1.000000 0.245694
0.470214 1.000000 0.249242
0.561353 1.000000 0.253839
0.684803 1.000000 0.259857
0.852099 1.000000 0.267814
1.000000 1.000000 0.278362
1.000000 1.000000 0.292642
1.000000 1.000000 0.311547
1.000000 1.000000 0.336968
1.000000 1.000000 0.371427
1.000000 1.000000 0.417662
1.000000 1.000000 0.480088
1.000000 1.000000 0.564540
1.000000 1.000000 0.132370
1.000000 1.000000 0.000000
1.000000 1.000000 0.000000
1.000000 1.000000 0.000000
1.000000 1.000000 0.000000
1.000000 0.928277 0.000000
1.000000 0.000000 0.000000
1.000000 0.000000 0.000000
0.211034 1.000000 0.272934
0.221081 1.000000 0.274611
0.229973 1.000000 0.276229
0.239917 1.000000 0.277872
0.249241 1.000000 0.279867
0.259140 1.000000 0.281126
0.270568 1.000000 0.282429
0.285916 1.000000 0.284662
0.306450 1.000000 0.286726
0.334240 1.000000 0.289085
0.371597 1.000000 0.291836
0.421174 1.000000 0.295077
0.488777 1.000000 0.299454
0.579203 1.000000 0.304044
0.702004 1.000000 0.310361
0.868202 1.000000 0.318477
1.000000 1.000000 0.328666
1.000000 1.000000 0.342566
1.000000 1.000000 0.361022
1.000000 1.000000 0.386016
1.000000 1.000000 0.418494
1.000000 1.000000 0.462279
1.000000 1.000000 0.521784
1.000000 1.000000 0.602069
1.000000 1.000000 0.710518
1.000000 1.000000 0.148061
1.000000 1.000000 0.000000
1.000000 1.000000 0.000000
1.000000 1.000000 0.000000
1.000000 1.000000 0.000000
1.000000 1.000000 0.000000
1.000000 0.000000 0.000000
0.184242 1.000000 0.278110
0.194972 1.000000 0.280674
0.203946 1.000000 0.282502
0.214599 1.000000 0.285053
0.224248 1.000000 0.287538
0.233946 1.000000 0.288705
0.246481 1.000000 0.291368
0.262750 1.000000 0.294805
0.283183 1.000000 0.297026
0.311468 1.000000 0.300268
0.349794 1.000000 0.304529
0.398873 1.000000 0.307837
0.465366 1.000000 0.311849
0.555685 1.000000 0.317393
0.676921 1.000000 0.323495
0.841654 1.000000 0.331983
1.000000 1.000000 0.342689
1.000000 1.000000 0.355707
1.000000 1.000000 0.373513
1.000000 1.000000 0.396947
1.000000 1.000000 0.427293
1.000000 1.000000 0.468629
1.000000 1.000000 0.523913
1.000000 1.000000 0.597430
1.000000 1.000000 0.696632
1.000000 1.000000 0.830643
1.000000 1.000000 0.113565
1.000000 1.000000 0.000000
1.000000 1.000000 0.000000
1.000000 1.000000 0.000000
1.000000 1.000000 0.000000
1.000000 1.000000 0.000000
0.078909 1.000000 0.204675
0.089622 1.000000 0.207387
0.099154 1.000000 0.209985
0.110762 1.000000 0.213766
0.121465 1.000000 0.217567
0.132387 1.000000 0.220252
0.145774 1.000000 0.224054
0.162267 1.000000 0.228000
0.182118 1.000000 0.229903
0.210056 1.000000 0.233210
0.249228 1.000000 0.239011
0.299127 1.000000 0.243992
0.365209 1.000000 0.248583
0.454103 1.000000 0.253979
0.574865 1.000000 0.261411
0.737666 1.000000 0.270305
0.955800 1.000000 0.280151
1.000000 1.000000 0.292595
1.000000 1.000000 0.307495
1.000000 1.000000 0.328435
1.000000 1.000000 0.357087
1.000000 1.000000 0.393589
1.000000 1.000000 0.442319
1.000000 1.000000 0.508906
1.000000 1.000000 0.598010
1.000000 1.000000 0.714887
1.000000 1.000000 0.874526
1.000000 1.000000 0.000000
1.000000 1.000000 0.000000
1.000000 1.000000 0.000000
1.000000 1.000000 0.000000
1.000000 1.000000 0.000000
0.000000 1.000000 0.002709
0.000000 1.000000 0.007955
0.000000 1.000000 0.014675
0.000000 1.000000 0.019900
0.000000 1.000000 0.021900
0.000000 1.000000 0.023947
0.000000 1.000000 0.029266
0.000000 1.000000 0.034659
0.000000 1.000000 0.040177
0.000000 1.000000 0.044358
0.025785 1.000000 0.047232
0.075960 1.000000 0.053415
0.142918 1.000000 0.060165
0.230862 1.000000 0.066092
0.349030 1.000000 0.072830
0.508376 1.000000 0.080848
0.722742 1.000000 0.090451
1.000000 1.000000 0.102210
