Assets/Samples/High Definition RP/10.5.0/Additional Post-processing Data/trippy.3DL
#Created by: Adobe Photoshop Export Color Lookup Plugin
#Description: Frame.psd
0 33 66 99 132 165 198 231 264 297 330 363 396 429 462 495 528 561 594 627 660 693 726 759 792 825 858 891 924 957 990 1023
0 0 0
0 0 0
0 0 0
0 0 10
0 0 38
0 0 72
0 0 111
0 0 162
0 0 233
0 0 332
0 0 466
0 0 647
0 0 893
0 0 1228
0 0 1684
0 0 2303
0 0 3141
0 0 4095
0 0 4095
0 0 4095
0 0 4095
0 0 4095
0 0 4095
0 0 4095
0 0 4095
0 0 4095
0 0 4095
0 0 4095
0 0 4095
0 0 4095
0 0 4095
0 0 4095
0 0 0
0 0 0
0 0 0
0 0 10
0 0 41
0 0 77
0 0 119
0 0 173
0 0 250
0 0 356
0 0 501
0 0 695
0 0 960
0 0 1321
0 0 1812
0 0 2479
0 0 3384
0 0 4095
0 0 4095
0 0 4095
0 0 4095
0 0 4095
0 0 4095
0 0 4095
0 0 4095
0 0 4095
0 0 4095
0 0 4095
0 0 4095
0 0 4095
0 0 4095
0 0 4095
0 0 0
0 0 0
0 0 0
0 0 12
0 0 45
0 0 84
0 0 130
0 0 190
0 0 275
0 0 391
0 0 550
0 0 764
0 0 1056
0 0 1454
0 0 1995
0 0 2732
0 0 3734
0 0 4095
0 0 4095
0 0 4095
0 0 4095
0 0 4095
0 0 4095
0 0 4095
0 0 4095
0 0 4095
0 0 4095
0 0 4095
0 0 4095
0 0 4095
0 0 4095
0 0 4095
0 10 0
0 10 0
0 11 0
0 11 15
0 10 52
0 8 95
0 6 147
0 3 214
0 0 309
0 0 439
0 0 618
0 0 857
0 0 1186
0 0 1634
0 0 2241
0 0 3071
0 0 4095
0 0 4095
0 0 4095
0 0 4095
0 0 4095
0 0 4095
0 0 4095
0 0 4095
0 0 4095
0 0 4095
0 0 4095
0 0 4095
0 0 4095
0 0 4095
0 0 4095
0 0 4095
0 35 0
0 35 0
0 36 0
0 36 16
0 37 61
0 35 111
0 33 169
0 31 246
0 28 354
0 24 503
0 18 706
0 10 979
0 0 1353
0 0 1862
0 0 2559
0 0 3508
0 0 4095
0 0 4095
0 0 4095
0 0 4095
0 0 4095
0 0 4095
0 0 4095
0 0 4095
0 0 4095
0 0 4095
0 0 4095
0 0 4095
0 0 4095
0 0 4095
0 0 4095
0 0 4095
0 63 0
0 64 0
0 65 0
0 65 18
0 66 70
0 67 131
0 65 199
0 64 286
0 61 410
0 57 581
0 52 814
0 46 1127
0 37 1557
0 26 2144
0 10 2941
0 0 4025
0 0 4095
0 0 4095
0 0 4095
0 0 4095
0 0 4095
0 0 4095
0 0 4095
0 0 4095
0 0 4095
0 0 4095
0 0 4095
0 0 4095
0 0 4095
0 0 4095
0 0 4095
0 0 4095
0 96 0
0 97 0
0 98 0
0 99 21
0 100 81
0 101 151
0 102 234
0 101 335
0 99 476
0 96 672
0 92 938
0 87 1296
0 80 1787
0 71 2456
0 59 3365
0 42 4095
0 20 4095
0 0 4095
0 0 4095
0 0 4095
0 0 4095
0 0 4095
0 0 4095
0 0 4095
0 0 4095
0 0 4095
0 0 4095
0 0 4095
0 0 4095
0 0 4095
0 0 4095
0 0 4095
0 139 0
0 140 0
0 141 0
0 143 25
0 144 93
0 145 173
0 147 267
0 149 390
0 147 549
0 145 771
0 142 1072
0 139 1476
0 134 2030
0 127 2783
0 118 3810
0 107 4095
0 91 4095
0 70 4095
0 42 4095
0 5 4095
0 0 4095
0 0 4095
0 0 4095
0 0 4095
0 0 4095
0 0 4095
0 0 4095
0 0 4095
0 0 4095
0 0 4095
0 0 4095
0 0 4095
0 199 0
0 200 0
0 201 0
0 203 31
0 204 107
0 206 196
0 208 301
0 210 437
0 213 628
0 212 873
0 210 1208
0 208 1655
0 205 2267
0 201 3099
0 195 4095
0 188 4095
0 178 4095
0 166 4095
0 148 4095
0 126 4095
0 95 4095
0 55 4095
0 2 4095
0 0 4095
0 0 4095
0 0 4095
0 0 4095
0 0 4095
0 0 4095
0 0 4095
0 0 4095
0 0 4095
0 280 0
0 282 0
0 283 0
0 285 39
0 286 122
0 288 219
0 290 332
0 293 480
0 297 688
0 302 975
0 301 1337
0 300 1822
0 298 2484
0 296 3385
0 294 4095
0 290 4095
0 286 4095
0 280 4095
0 272 4095
0 261 4095
0 248 4095
0 230 4095
0 207 4095
0 176 4095
0 137 4095
0 85 4095
0 16 4095
0 0 4095
0 0 4095
0 0 4095
0 0 4095
0 0 4095
0 391 0
0 393 0
0 394 0
0 396 50
0 398 138
0 400 241
0 402 361
0 405 518
0 409 739
0 415 1043
0 423 1456
0 422 1969
0 422 2670
0 421 3620
0 421 4095
0 420 4095
0 419 4095
0 418 4095
0 417 4095
0 416 4095
0 415 4095
0 414 4095
0 412 4095
0 411 4095
0 410 4095
0 412 4095
0 415 4095
0 419 4095
0 432 4095
0 456 4095
0 485 4095
0 536 4095
8 539 0
0 541 0
0 542 0
0 544 63
0 546 154
0 548 261
0 550 387
0 554 550
0 558 780
0 564 1095
0 572 1524
0 583 2099
0 584 2825
0 584 3811
0 585 4095
0 587 4095
0 588 4095
0 591 4095
0 594 4095
0 599 4095
0 605 4095
0 615 4095
0 628 4095
0 646 4095
0 671 4095
0 706 4095
0 754 4095
0 820 4095
0 912 4095
0 1039 4095
0 1215 4095
0 1458 4095
21 741 0
0 743 0
0 744 0
0 746 78
0 748 172
0 750 282
0 753 411
0 756 578
0 761 813
0 767 1135
0 775 1574
0 787 2161
0 803 2962
0 804 3968
0 805 4095
0 808 4095
0 811 4095
0 815 4095
0 821 4095
0 830 4095
0 841 4095
0 857 4095
0 878 4095
0 907 4095
0 946 4095
0 1000 4095
0 1074 4095
0 1175 4095
0 1311 4095
0 1498 4095
0 1752 4095
0 2098 4095
37 1015 0
4 1017 0
0 1019 0
0 1021 99
0 1023 194
0 1025 305
0 1027 435
0 1031 605
0 1035 842
0 1042 1168
0 1050 1612
0 1062 2206
0 1078 3016
0 1099 4095
0 1102 4095
0 1104 4095
0 1108 4095
0 1114 4095
0 1121 4095
0 1131 4095
0 1145 4095
0 1164 4095
0 1189 4095
0 1224 4095
0 1271 4095
0 1335 4095
0 1421 4095
0 1539 4095
0 1698 4095
0 1914 4095
0 2207 4095
0 2606 4095
56 1387 0
22 1389 0
0 1391 17
0 1393 125
0 1395 220
0 1397 332
0 1400 463
0 1403 634
0 1408 872
0 1414 1200
0 1423 1647
0 1435 2243
0 1451 3058
0 1472 4095
0 1502 4095
0 1505 4095
0 1509 4095
0 1515 4095
0 1523 4095
0 1534 4095
0 1549 4095
0 1569 4095
0 1597 4095
0 1634 4095
0 1684 4095
0 1752 4095
0 1844 4095
0 1969 4095
0 2139 4095
0 2368 4095
0 2680 4095
0 3102 4095
81 1893 0
47 1895 0
18 1897 51
0 1899 159
0 1901 255
0 1903 367
0 1905 499
0 1909 669
0 1913 908
0 1920 1237
0 1929 1684
0 1940 2283
0 1956 3099
0 1978 4095
0 2008 4095
0 2048 4095
0 2052 4095
0 2058 4095
0 2067 4095
0 2078 4095
0 2093 4095
0 2114 4095
0 2142 4095
0 2180 4095
0 2232 4095
0 2301 4095
0 2396 4095
0 2524 4095
0 2697 4095
0 2932 4095
0 3250 4095
0 3681 4095
114 2576 0
80 2578 1
50 2580 96
16 2582 205
0 2584 301
0 2586 413
0 2589 545
0 2592 715
0 2597 955
0 2603 1284
0 2612 1732
0 2624 2330
0 2640 3147
0 2662 4095
0 2691 4095
0 2731 4095
0 2786 4095
0 2792 4095
0 2800 4095
0 2812 4095
0 2827 4095
0 2848 4095
0 2876 4095
0 2915 4095
0 2966 4095
0 3037 4095
0 3132 4095
0 3261 4095
0 3435 4095
0 3672 4095
0 3991 4095
0 4095 4095
158 3502 0
124 3504 63
94 3506 158
60 3508 266
30 3510 362
0 3512 475
0 3515 606
0 3518 777
0 3523 1016
0 3529 1346
0 3538 1793
0 3550 2392
0 3566 3208
0 3588 4095
0 3617 4095
0 3657 4095
0 3711 4095
0 3785 4095
0 3793 4095
0 3805 4095
0 3820 4095
0 3841 4095
0 3869 4095
0 3907 4095
0 3959 4095
0 4029 4095
0 4095 4095
0 4095 4095
0 4095 4095
0 4095 4095
0 4095 4095
0 4095 4095
216 4095 36
182 4095 145
153 4095 241
119 4095 349
89 4095 445
54 4095 557
14 4095 689
0 4095 859
0 4095 1099
0 4095 1428
0 4095 1875
0 4095 2473
0 4095 3289
0 4095 4095
0 4095 4095
0 4095 4095
0 4095 4095
0 4095 4095
0 4095 4095
0 4095 4095
0 4095 4095
0 4095 4095
0 4095 4095
0 4095 4095
0 4095 4095
0 4095 4095
0 4095 4095
0 4095 4095
0 4095 4095
0 4095 4095
0 4095 4095
0 4095 4095
295 4095 147
261 4095 257
231 4095 352
198 4095 460
168 4095 556
133 4095 668
92 4095 799
39 4095 969
0 4095 1208
0 4095 1536
0 4095 1982
0 4095 2579
0 4095 3393
0 4095 4095
0 4095 4095
0 4095 4095
0 4095 4095
0 4095 4095
0 4095 4095
0 4095 4095
0 4095 4095
0 4095 4095
0 4095 4095
0 4095 4095
0 4095 4095
0 4095 4095
0 4095 4095
0 4095 4095
0 4095 4095
0 4095 4095
0 4095 4095
0 4095 4095
397 4095 294
363 4095 403
334 4095 497
300 4095 605
270 4095 700
235 4095 812
195 4095 942
142 4095 1111
68 4095 1349
0 4095 1675
0 4095 2119
0 4095 2712
0 4095 3522
0 4095 4095
0 4095 4095
0 4095 4095
0 4095 4095
0 4095 4095
0 4095 4095
0 4095 4095
0 4095 4095
0 4095 4095
0 4095 4095
0 4095 4095
0 4095 4095
0 4095 4095
0 4095 4095
0 4095 4095
0 4095 4095
0 4095 4095
0 4095 4095
0 4095 4095
525 4095 481
491 4095 589
461 4095 682
427 4095 788
397 4095 882
362 4095 992
321 4095 1120
269 4095 1287
195 4095 1521
95 4095 1844
0 4095 2282
0 4095 2869
0 4095 3668
0 4095 4095
0 4095 4095
0 4095 4095
0 4095 4095
0 4095 4095
0 4095 4095
0 4095 4095
0 4095 4095
0 4095 4095
0 4095 4095
0 4095 4095
0 4095 4095
0 4095 4095
0 4095 4095
0 4095 4095
0 4095 4095
0 4095 4095
0 4095 4095
0 4095 4095
669 4095 705
635 4095 809
604 4095 899
570 4095 1002
539 4095 1092
504 4095 1199
464 4095 1324
411 4095 1486
338 4095 1714
239 4095 2029
105 4095 2456
0 4095 3028
0 4095 3809
0 4095 4095
0 4095 4095
0 4095 4095
0 4095 4095
0 4095 4095
0 4095 4095
0 4095 4095
0 4095 4095
0 4095 4095
0 4095 4095
0 4095 4095
0 4095 4095
0 4095 4095
0 4095 4095
0 4095 4095
0 4095 4095
0 4095 4095
0 4095 4095
0 4095 4095
802 4095 936
766 4095 1035
735 4095 1121
700 4095 1217
667 4095 1301
632 4095 1402
591 4095 1520
537 4095 1673
466 4095 1890
370 4095 2192
240 4095 2602
68 4095 3150
0 4095 3897
0 4095 4095
0 4095 4095
0 4095 4095
0 4095 4095
0 4095 4095
0 4095 4095
0 4095 4095
0 4095 4095
0 4095 4095
0 4095 4095
0 4095 4095
0 4095 4095
0 4095 4095
0 4095 4095
0 4095 4095
0 4095 4095
0 4095 4095
0 4095 4095
0 4095 4095
864 4095 1118
826 4095 1205
792 4095 1282
755 4095 1370
720 4095 1444
681 4095 1533
639 4095 1639
586 4095 1781
514 4095 1980
421 4095 2259
297 4095 2642
133 4095 3153
0 4095 3856
0 4095 4095
0 4095 4095
0 4095 4095
0 4095 4095
0 4095 4095
0 4095 4095
0 4095 4095
0 4095 4095
0 4095 4095
0 4095 4095
0 4095 4095
0 4095 4095
0 4095 4095
0 4095 4095
0 4095 4095
0 4095 4095
0 4095 4095
0 4095 4095
0 4095 4095
754 4095 1139
712 4095 1212
673 4095 1273
631 4095 1345
594 4095 1409
554 4095 1485
510 4095 1577
456 4095 1701
384 4095 1877
290 4095 2121
170 4095 2464
18 4095 2926
0 4095 3567
0 4095 4095
0 4095 4095
0 4095 4095
0 4095 4095
0 4095 4095
0 4095 4095
0 4095 4095
0 4095 4095
0 4095 4095
0 4095 4095
0 4095 4095
0 4095 4095
0 4095 4095
0 4095 4095
0 4095 4095
0 4095 4095
0 4095 4095
0 4095 4095
0 4095 4095
323 4095 838
280 4095 898
231 4095 937
184 4095 990
139 4095 1034
95 4095 1093
48 4095 1167
0 4095 1264
0 4095 1411
0 4095 1623
0 4095 1926
0 4095 2337
0 4095 2900
0 4095 3670
0 4095 4095
0 4095 4095
0 4095 4095
0 4095 4095
0 4095 4095
0 4095 4095
0 4095 4095
0 4095 4095
0 4095 4095
0 4095 4095
0 4095 4095
0 4095 4095
0 4095 4095
0 4095 4095
0 4095 4095
0 4095 4095
0 4095 4095
0 4095 4095
0 4095 11
0 4095 59
0 4095 90
0 4095 116
0 4095 140
0 4095 181
0 4095 234
0 4095 305
0 4095 421
0 4095 602
0 4095 858
0 4095 1196
0 4095 1671
0 4095 2345
0 4095 3268
0 4095 4095
0 4095 4095
0 4095 4095
0 4095 4095
0 4095 4095
0 4095 4095
0 4095 4095
0 4095 4095
0 4095 4095
0 4095 4095
0 4095 4095
0 4095 4095
0 4095 4095
0 4095 4095
0 4095 4095
0 4095 4095
0 4095 4095
0 4095 0
0 4095 0
0 4095 0
0 4095 0
